; generated by PrusaSlicer 2.5.0+linux-x64-GTK3 on 2023-04-29 at 21:40:19 UTC

; 

; external perimeters extrusion width = 0.60mm
; perimeters extrusion width = 0.50mm
; infill extrusion width = 0.50mm
; solid infill extrusion width = 0.50mm
; top infill extrusion width = 0.45mm
; first layer extrusion width = 0.42mm

M73 P0 R15
M73 Q0 S15
M107
;TYPE:Custom
M862.3 P "MK3S" ; printer model check
M862.1 P0.4 ; nozzle diameter check
M115 U3.10.0 ; tell printer latest fw version
G90 ; use absolute coordinates
M83 ; extruder relative mode
M104 S230 ; set extruder temp
M140 S85 ; set bed temp
M190 S85 ; wait for bed temp
M109 S230 ; wait for extruder temp
G28 W ; home all without mesh bed level
G80 ; mesh bed leveling
G1 Z0.2 F720
G1 Y-3 F1000 ; go outside print area
G92 E0
G1 X60 E9 F1000 ; intro line
G1 X100 E12.5 F1000 ; intro line
G92 E0
M221 S95

; Don't change E values below. Excessive value can damage the printer.

M907 E538 ; set extruder motor current
G21 ; set units to millimeters
G90 ; use absolute coordinates
M83 ; use relative distances for extrusion
M900 K0.08 ; Filament gcode LA 1.5
M900 K45 ; Filament gcode LA 1.0
M107
;LAYER_CHANGE
;Z:0.2
;HEIGHT:0.2
;BEFORE_LAYER_CHANGE
G92 E0.0
;0.2


G1 E-1 F2100
G1 Z.2 F720
;AFTER_LAYER_CHANGE
;0.2
G1 Z.4
G1 X105.479 Y88.872 F10800
G1 Z.2 F720
G1 E1 F2100
M204 S800
;TYPE:Skirt/Brim
;WIDTH:0.42
G1 F1200
G1 X106.949 Y87.254 E.06852
G1 X108.574 Y85.751 E.06942
G1 X110.313 Y84.405 E.06897
G1 X112.164 Y83.215 E.06897
G1 X114.299 Y82.104 E.07546
G1 X116.334 Y81.27 E.06897
G1 X118.435 Y80.618 E.06897
G1 X120.599 Y80.148 E.06942
G1 X122.767 Y79.872 E.06852
G1 X124.757 Y79.785 E.06247
G1 X126.955 Y79.872 E.06897
G1 X129.341 Y80.186 E.07546
G1 X131.487 Y80.671 E.06897
G1 X133.582 Y81.341 E.06897
G1 X135.611 Y82.191 E.06897
G1 X137.558 Y83.215 E.06897
G1 X139.409 Y84.405 E.06897
G1 X141.148 Y85.751 E.06897
M73 Q1 S15
G1 X142.764 Y87.244 E.06897
G1 X144.11 Y88.713 E.06247
G1 X145.456 Y90.453 E.06898
M73 P1 R15
G1 X146.646 Y92.303 E.06897
G1 X147.757 Y94.438 E.07546
G1 X148.591 Y96.473 E.06897
G1 X149.243 Y98.574 E.06897
G1 X149.713 Y100.742 E.06954
G1 X149.988 Y102.898 E.06817
G1 X150.076 Y104.896 E.0627
G1 X149.989 Y107.094 E.06897
G1 X149.675 Y109.481 E.07547
G1 X149.19 Y111.626 E.06897
G1 X148.52 Y113.721 E.06897
G1 X147.665 Y115.758 E.06926
G1 X146.646 Y117.697 E.06868
G1 X145.575 Y119.378 E.06248
G1 X144.243 Y121.128 E.06897
G1 X142.764 Y122.756 E.06897
G1 X141.148 Y124.249 E.06897
G1 X139.409 Y125.595 E.06897
G1 X137.379 Y126.889 E.07547
G1 X135.423 Y127.896 E.06897
G1 X133.388 Y128.73 E.06897
G1 X131.287 Y129.382 E.06897
G1 X129.124 Y129.852 E.06941
G1 X126.955 Y130.128 E.06853
G1 X124.965 Y130.215 E.06247
G1 X122.767 Y130.128 E.06897
G1 X120.381 Y129.814 E.07546
G1 X118.235 Y129.329 E.06897
G1 X116.14 Y128.659 E.06896
G1 X114.111 Y127.809 E.06898
G1 X112.164 Y126.785 E.06897
G1 X110.302 Y125.587 E.06942
G1 X108.574 Y124.249 E.06852
G1 X107.105 Y122.903 E.06247
G1 X105.612 Y121.287 E.06897
G1 X104.266 Y119.548 E.06897
G1 X102.972 Y117.518 E.07547
G1 X101.965 Y115.562 E.06897
G1 X101.131 Y113.527 E.06897
G1 X100.479 Y111.426 E.06897
G1 X100.011 Y109.276 E.06897
G1 X99.733 Y107.094 E.06897
G1 X99.646 Y105.104 E.06247
G1 X99.733 Y102.906 E.06897
G1 X100.011 Y100.723 E.06898
G1 X100.479 Y98.574 E.06897
G1 X101.131 Y96.473 E.06897
G1 X102.052 Y94.25 E.07547
G1 X103.076 Y92.303 E.06897
G1 X104.266 Y90.452 E.06897
G1 X105.442 Y88.919 E.06059
M204 S1000
; printing object Membrane_Air_Horn_v19-2_COV_1_Mai_2023.stl id:0 copy 0
;WIPE_START
G1 F8640
G1 X106.949 Y87.254 E-.51844
G1 X108.321 Y85.985 E-.43156
;WIPE_END
G1 E-.05 F2100
G1 Z.4 F720
G1 X118.193 Y83.912 F10800
G1 Z.2 F720
G1 E1 F2100
M204 S800
;TYPE:Perimeter
;WIDTH:0.419999
G1 F1200
G1 X118.68 Y83.82 E.01552
G1 X119.582 Y83.574 E.02933
G1 X120.034 Y83.41 E.01508
G1 X119.935 Y83.861 E.01449
G1 X119.875 Y84.861 E.0314
G1 X119.874 Y95.78 E.34237
G1 X119.986 Y96.118 E.01115
G1 X120.219 Y96.301 E.0093
G1 X120.377 Y96.342 E.00513
G1 X120.67 Y96.297 E.00927
G1 X121.861 Y95.767 E.04089
G1 X123.846 Y95.345 E.06364
G1 X125.876 Y95.345 E.06364
G1 X127.861 Y95.767 E.06364
G1 X129.715 Y96.592 E.06364
G1 X131.357 Y97.785 E.06364
G1 X132.715 Y99.293 E.06364
G1 X133.73 Y101.051 E.06364
G1 X134.133 Y102.291 E.04089
G1 X134.395 Y103.031 E.0246
G1 X134.584 Y103.209 E.00813
G1 X144.793 Y109.102 E.36961
G1 X145.494 Y109.453 E.02456
G1 X145.965 Y109.646 E.01597
G1 X146.458 Y109.77 E.01593
G1 X146.295 Y110.237 E.01552
G1 X146.056 Y111.141 E.02933
G1 X145.972 Y111.615 E.01508
G1 X145.631 Y111.303 E.01449
G1 X144.795 Y110.751 E.0314
G1 X135.339 Y105.291 E.34237
G1 X134.991 Y105.219 E.01116
M73 P2 R15
M73 Q2 S15
G1 X134.715 Y105.33 E.0093
G1 X134.6 Y105.446 E.00513
G1 X134.494 Y105.722 E.00927
G1 X134.357 Y107.019 E.04089
G1 X133.73 Y108.949 E.06364
G1 X132.715 Y110.707 E.06364
G1 X131.357 Y112.215 E.06364
G1 X129.715 Y113.408 E.06364
G1 X127.861 Y114.233 E.06364
G1 X125.876 Y114.655 E.06364
G1 X123.846 Y114.655 E.06364
G1 X122.571 Y114.384 E.04089
G1 X121.799 Y114.241 E.0246
G1 X121.551 Y114.316 E.00813
G1 X111.342 Y120.211 E.36961
G1 X110.688 Y120.642 E.02457
G1 X110.286 Y120.954 E.01596
G1 X109.932 Y121.318 E.01593
G1 X109.609 Y120.944 E.01552
G1 X108.945 Y120.284 E.02933
G1 X108.577 Y119.975 E.01508
G1 X109.017 Y119.836 E.01449
G1 X109.913 Y119.388 E.0314
G1 X119.37 Y113.929 E.34238
G1 X119.607 Y113.663 E.01116
G1 X119.649 Y113.369 E.0093
G1 X119.605 Y113.212 E.00513
G1 X119.42 Y112.981 E.00927
G1 X118.365 Y112.215 E.04089
G1 X117.007 Y110.707 E.06364
G1 X115.992 Y108.949 E.06364
G1 X115.365 Y107.019 E.06364
G1 X115.152 Y105 E.06364
G1 X115.365 Y102.981 E.06364
G1 X115.992 Y101.051 E.06364
G1 X117.007 Y99.293 E.06364
G1 X117.879 Y98.324 E.04089
G1 X118.389 Y97.728 E.0246
G1 X118.448 Y97.475 E.00814
G1 X118.438 Y85.198 E.38493
G1 X118.332 Y84.401 E.02523
G1 X118.21 Y83.97 E.01404
M204 S1000
;WIPE_START
G1 F8640
G1 X118.68 Y83.82 E-.11392
G1 X119.582 Y83.574 E-.21601
G1 X120.034 Y83.41 E-.11102
G1 X119.935 Y83.861 E-.10669
G1 X119.875 Y84.861 E-.23123
G1 X119.874 Y85.602 E-.17113
;WIPE_END
G1 E-.05 F2100
G1 Z.4 F720
G1 X134.869 Y105.761 F10800
G1 Z.2 F720
G1 E1 F2100
M204 S800
;TYPE:External perimeter
G1 F1200
G1 X134.943 Y105.63 E.00471
G1 X135.121 Y105.604 E.00565
G1 X135.151 Y105.617 E.00103
G1 X144.607 Y111.078 E.34237
G1 X145.423 Y111.618 E.03068
G1 X145.831 Y112.001 E.01754
G1 X145.88 Y112.194 E.00625
G1 X145.568 Y113.047 E.02849
G1 X145.006 Y114.403 E.04601
G1 X144.109 Y116.123 E.06081
G1 X143.067 Y117.758 E.06081
G1 X141.886 Y119.296 E.06081
G1 X140.575 Y120.725 E.06081
G1 X139.144 Y122.035 E.06081
G1 X137.605 Y123.215 E.06081
G1 X135.984 Y124.248 E.06029
G1 X134.264 Y125.145 E.06081
G1 X132.472 Y125.887 E.06081
G1 X130.623 Y126.471 E.06081
G1 X128.729 Y126.892 E.06081
G1 X126.807 Y127.146 E.06081
G1 X124.869 Y127.231 E.06081
G1 X122.932 Y127.147 E.06081
G1 X120.993 Y126.892 E.06132
G1 X119.099 Y126.471 E.06081
G1 X117.25 Y125.887 E.06081
G1 X115.473 Y125.152 E.06029
G1 X113.753 Y124.257 E.06081
G1 X112.117 Y123.215 E.06081
G1 X110.578 Y122.035 E.06081
;WIDTH:0.419803
G1 X110.275 Y121.758 E.01286
;WIDTH:0.419999
M73 P2 R14
G1 X110.233 Y121.536 E.00708
G1 X110.679 Y121.103 E.01948
G1 X111.521 Y120.543 E.03172
G1 X121.739 Y114.643 E.36997
G1 X121.873 Y114.621 E.00424
G1 X123.807 Y115.032 E.06198
G1 X125.915 Y115.032 E.06612
G1 X127.978 Y114.594 E.06612
G1 X129.905 Y113.736 E.06612
G1 X131.611 Y112.497 E.06612
G1 X133.022 Y110.929 E.06612
G1 X134.077 Y109.103 E.06612
G1 X134.728 Y107.097 E.06612
G1 X134.862 Y105.821 E.04025
M204 S1000
M73 Q3 S15
G1 X134.781 Y105.639 F10800
;WIPE_START
G1 F8640
G1 X134.943 Y105.63 E-.04769
G1 X135.121 Y105.604 E-.04163
G1 X135.151 Y105.617 E-.00755
G1 X138.35 Y107.465 E-.85312
;WIPE_END
G1 E-.05 F2100
G1 Z.4 F720
G1 X119.198 Y113.286 F10800
M73 P3 R14
G1 Z.2 F720
G1 E1 F2100
M204 S800
G1 F1200
G1 X119.274 Y113.416 E.00471
G1 X119.208 Y113.584 E.00565
G1 X119.181 Y113.602 E.00103
G1 X109.725 Y119.062 E.34238
G1 X108.849 Y119.498 E.03068
;WIDTH:0.420135
G1 X108.313 Y119.66 E.01755
M73 Q3 S14
G1 X108.121 Y119.606 E.00626
;WIDTH:0.419802
G1 X107.826 Y119.283 E.01371
;WIDTH:0.419929
G1 X106.646 Y117.744 E.0608
G1 X105.604 Y116.108 E.0608
G1 X104.716 Y114.403 E.06028
G1 X103.974 Y112.611 E.0608
G1 X103.385 Y110.746 E.06132
;WIDTH:0.42116
G1 X102.963 Y108.824 E.06188
;WIDTH:0.419933
G1 X102.714 Y106.929 E.05991
G1 X102.63 Y105.008 E.06028
;WIDTH:0.419932
G1 X102.714 Y103.071 E.0608
G1 X102.966 Y101.148 E.0608
G1 X103.39 Y99.238 E.06131
G1 X103.974 Y97.389 E.0608
G1 X104.716 Y95.597 E.0608
G1 X105.604 Y93.892 E.06028
G1 X106.646 Y92.256 E.0608
G1 X107.836 Y90.704 E.06131
G1 X109.136 Y89.286 E.06028
G1 X110.565 Y87.975 E.0608
G1 X112.103 Y86.794 E.0608
G1 X113.738 Y85.752 E.0608
G1 X115.473 Y84.848 E.06132
;WIDTH:0.420311
G1 X117.261 Y84.109 E.06071
G1 X117.673 Y83.982 E.01352
;WIDTH:0.419999
G1 X117.855 Y84.064 E.00625
G1 X118.007 Y84.666 E.01948
G1 X118.061 Y85.198 E.01678
G1 X118.071 Y97.475 E.38493
G1 X118.023 Y97.602 E.00424
G1 X116.7 Y99.071 E.06198
G1 X115.645 Y100.897 E.06612
G1 X114.994 Y102.903 E.06612
G1 X114.773 Y105 E.06612
G1 X114.994 Y107.097 E.06612
G1 X115.645 Y109.103 E.06612
G1 X116.7 Y110.929 E.06612
G1 X118.111 Y112.497 E.06612
G1 X119.149 Y113.251 E.04025
M204 S1000
G1 X119.347 Y113.271 F10800
;WIPE_START
G1 F8640
G1 X119.274 Y113.416 E-.04769
G1 X119.208 Y113.584 E-.04163
G1 X119.181 Y113.602 E-.00755
G1 X115.982 Y115.449 E-.85312
;WIPE_END
G1 E-.05 F2100
G1 Z.4 F720
G1 X109.956 Y121.963 F10800
G1 Z.2 F720
G1 E1 F2100
M204 S800
G1 F1200
G1 X109.54 Y121.441 E.02094
G1 X109.157 Y121.026 E.01769
G1 X108.621 Y120.497 E.02362
G1 X107.872 Y119.889 E.03025
;WIDTH:0.419803
G1 X107.527 Y119.513 E.01599
;WIDTH:0.41993
G1 X106.328 Y117.947 E.06183
G1 X105.27 Y116.282 E.06183
G1 X104.382 Y114.577 E.06028
G1 X103.608 Y112.709 E.06337
G1 X103.017 Y110.827 E.06184
;WIDTH:0.42116
G1 X102.589 Y108.873 E.0629
;WIDTH:0.419932
G1 X102.337 Y106.946 E.06094
G1 X102.253 Y105.025 E.06028
;WIDTH:0.420111
G1 X102.252 Y105 E.00077
G1 X102.253 Y104.975 E.00077
;WIDTH:0.419932
G1 X102.342 Y103.005 E.06183
G1 X102.593 Y101.099 E.06028
G1 X103.03 Y99.125 E.06337
G1 X103.625 Y97.245 E.06183
G1 X104.382 Y95.423 E.06183
G1 X105.27 Y93.718 E.06028
G1 X106.328 Y92.053 E.06183
G1 X107.527 Y90.487 E.06183
G1 X108.858 Y89.032 E.06183
G1 X110.348 Y87.666 E.06337
G1 X111.874 Y86.495 E.06028
G1 X113.536 Y85.434 E.06183
G1 X115.329 Y84.5 E.06338
;WIDTH:0.420317
G1 X117.117 Y83.76 E.06071
G1 X117.623 Y83.611 E.01656
;WIDTH:0.419999
G1 X118.283 Y83.512 E.02094
G1 X118.834 Y83.387 E.01769
G1 X119.56 Y83.187 E.02362
G1 X120.461 Y82.843 E.03025
;WIDTH:0.419801
G1 X120.959 Y82.732 E.01599
;WIDTH:0.419922
G1 X122.866 Y82.481 E.06028
G1 X124.808 Y82.394 E.06094
;WIDTH:0.421181
G1 X126.806 Y82.476 E.0629
;WIDTH:0.419929
G1 X128.811 Y82.74 E.06339
G1 X130.736 Y83.169 E.06183
G1 X132.616 Y83.764 E.06183
G1 X134.438 Y84.521 E.06183
G1 X136.186 Y85.434 E.06183
G1 X137.848 Y86.495 E.06183
G1 X139.412 Y87.697 E.06183
G1 X140.864 Y89.031 E.06183
G1 X142.164 Y90.449 E.06028
G1 X143.366 Y92.013 E.06183
M73 Q4 S14
G1 X144.427 Y93.675 E.06183
G1 X145.34 Y95.423 E.06183
G1 X146.097 Y97.245 E.06183
M73 P4 R14
G1 X146.705 Y99.173 E.06339
;WIDTH:0.421158
G1 X147.133 Y101.127 E.0629
;WIDTH:0.419928
G1 X147.385 Y103.054 E.06094
G1 X147.469 Y105.025 E.06183
G1 X147.385 Y106.946 E.06028
G1 X147.129 Y108.901 E.06183
;WIDTH:0.4198
G1 X147.12 Y108.951 E.00159
;WIDTH:0.420902
G1 X146.978 Y109.486 E.01739
G1 X146.759 Y110.048 E.01894
;WIDTH:0.419999
G1 X146.592 Y110.587 E.01769
G1 X146.402 Y111.316 E.02362
G1 X146.257 Y112.227 E.02893
;WIDTH:0.418163
G1 X146.096 Y112.712 E.01594
;WIDTH:0.419999
G1 X145.918 Y113.187 E.01593
G1 X145.361 Y114.532 E.04563
G1 X144.427 Y116.325 E.06338
G1 X143.394 Y117.947 E.06029
G1 X142.195 Y119.513 E.06184
G1 X140.83 Y121.003 E.06338
G1 X139.412 Y122.303 E.06029
G1 X137.848 Y123.505 E.06184
G1 X136.143 Y124.591 E.06338
G1 X134.393 Y125.5 E.06184
G1 X132.616 Y126.236 E.06029
G1 X130.688 Y126.844 E.06338
G1 X128.762 Y127.268 E.06184
G1 X126.856 Y127.519 E.06029
G1 X124.886 Y127.608 E.06184
G1 X122.866 Y127.519 E.06338
G1 X120.911 Y127.26 E.06184
G1 X119.034 Y126.844 E.06029
G1 X117.106 Y126.236 E.06338
G1 X115.329 Y125.5 E.06029
G1 X113.579 Y124.591 E.06184
G1 X111.874 Y123.505 E.06338
G1 X110.348 Y122.334 E.06029
G1 X110 Y122.005 E.01504
M204 S1000
G1 X110.075 Y121.581 F10800
;WIPE_START
G1 F8640
G1 X109.54 Y121.441 E-.16794
G1 X109.157 Y121.026 E-.13024
G1 X108.621 Y120.497 E-.17397
G1 X107.872 Y119.889 E-.22279
G1 X107.527 Y119.513 E-.11785
G1 X107.166 Y119.041 E-.13721
;WIPE_END
G1 E-.05 F2100
G1 Z.4 F720
G1 X120.516 Y95.953 F10800
G1 Z.2 F720
G1 E1 F2100
M204 S800
G1 F1200
G1 X120.366 Y95.954 E.00471
G1 X120.254 Y95.813 E.00565
G1 X120.251 Y95.78 E.00103
G1 X120.252 Y84.861 E.34237
G1 X120.311 Y83.884 E.03068
;WIDTH:0.420135
G1 X120.439 Y83.339 E.01755
G1 X120.581 Y83.2 E.00626
;WIDTH:0.419802
G1 X121.009 Y83.105 E.01371
;WIDTH:0.419929
G1 X122.915 Y82.854 E.06028
G1 X124.825 Y82.771 E.05991
;WIDTH:0.421181
G1 X126.79 Y82.853 E.06188
;WIDTH:0.419931
G1 X128.729 Y83.108 E.06132
G1 X130.623 Y83.529 E.0608
G1 X132.472 Y84.113 E.0608
G1 X134.249 Y84.848 E.06028
G1 X135.969 Y85.743 E.0608
G1 X137.605 Y86.785 E.0608
G1 X139.144 Y87.965 E.0608
G1 X140.575 Y89.275 E.0608
G1 X141.886 Y90.704 E.0608
G1 X143.067 Y92.242 E.0608
G1 X144.109 Y93.877 E.0608
G1 X145.006 Y95.597 E.0608
G1 X145.748 Y97.389 E.0608
G1 X146.337 Y99.254 E.06132
;WIDTH:0.421158
G1 X146.759 Y101.176 E.06188
;WIDTH:0.419932
G1 X147.008 Y103.071 E.05991
G1 X147.092 Y105.008 E.0608
G1 X147.008 Y106.929 E.06028
G1 X146.756 Y108.852 E.0608
;WIDTH:0.420902
G1 X146.643 Y109.313 E.01491
G1 X146.496 Y109.4 E.00539
;WIDTH:0.419999
G1 X145.898 Y109.231 E.01948
G1 X144.982 Y108.776 E.03208
G1 X134.773 Y102.882 E.36961
G1 X134.687 Y102.777 E.00424
G1 X134.077 Y100.897 E.06198
G1 X133.022 Y99.071 E.06612
G1 X131.611 Y97.503 E.06612
G1 X129.905 Y96.264 E.06612
G1 X127.978 Y95.406 E.06612
G1 X125.915 Y94.968 E.06612
G1 X123.807 Y94.968 E.06612
G1 X121.744 Y95.406 E.06612
G1 X120.571 Y95.928 E.04025
M204 S1000
G1 X120.455 Y96.09 F10800
;WIPE_START
G1 F8640
G1 X120.366 Y95.954 E-.04772
G1 X120.254 Y95.813 E-.04157
G1 X120.251 Y95.78 E-.00759
G1 X120.251 Y92.086 E-.85312
;WIPE_END
G1 E-.05 F2100
G1 Z.4 F720
G1 X134.212 Y105.7 F10800
G1 Z.2 F720
G1 E1 F2100
M204 S800
;TYPE:Solid infill
G1 F1200
G1 X134.323 Y105.363 E.01115
G1 X134.585 Y105.084 E.01198
G1 X135.003 Y104.941 E.01388
G1 X135.368 Y104.993 E.01156
G1 X144.934 Y110.505 E.34614
G1 X145.783 Y111.073 E.03203
M73 P5 R14
M73 Q5 S14
G1 X146.085 Y109.977 E.03566
G1 X145.603 Y109.823 E.01588
G1 X144.649 Y109.346 E.03343
G1 X134.449 Y103.457 E.36931
G1 X134.225 Y103.268 E.00917
G1 X134.067 Y103.001 E.00972
G1 X133.47 Y101.167 E.06049
G1 X132.485 Y99.461 E.06177
G1 X131.167 Y97.996 E.06177
G1 X129.573 Y96.838 E.06177
G1 X127.773 Y96.037 E.06177
G1 X125.846 Y95.627 E.06177
G1 X123.876 Y95.627 E.06177
G1 X121.949 Y96.037 E.06177
G1 X120.792 Y96.552 E.03969
G1 X120.444 Y96.624 E.01116
G1 X120.072 Y96.537 E.01199
G1 X119.738 Y96.246 E.01387
G1 X119.602 Y95.904 E.01153
G1 X119.591 Y95.777 E.00401
G1 X119.592 Y84.864 E.34216
G1 X119.661 Y83.843 E.03209
G1 X118.56 Y84.131 E.03569
G1 X118.689 Y84.865 E.02337
G1 X118.721 Y85.203 E.01064
G1 X118.731 Y97.468 E.38457
G1 X118.679 Y97.756 E.00918
G1 X118.527 Y98.027 E.00973
G1 X117.237 Y99.461 E.06049
G1 X116.252 Y101.167 E.06177
G1 X115.643 Y103.041 E.06177
G1 X115.437 Y105 E.06177
G1 X115.643 Y106.959 E.06177
G1 X116.252 Y108.833 E.06177
G1 X117.237 Y110.539 E.06177
G1 X118.555 Y112.004 E.06177
G1 X119.579 Y112.748 E.03969
G1 X119.816 Y113.013 E.01115
G1 X119.926 Y113.379 E.01198
G1 X119.841 Y113.813 E.01388
G1 X119.613 Y114.103 E.01156
G1 X119.508 Y114.176 E.00401
G1 X110.057 Y119.631 E.34215
G1 X109.141 Y120.082 E.03203
G1 X109.939 Y120.892 E.03566
G1 X110.313 Y120.552 E.01588
G1 X111.203 Y119.964 E.03343
G1 X121.404 Y114.075 E.36931
G1 X121.679 Y113.975 E.00917
