; generated by PrusaSlicer 2.6.0-beta1+linux-x64-GTK3 on 2023-05-19 at 23:37:10 UTC

; 

; external perimeters extrusion width = 0.60mm
; perimeters extrusion width = 0.50mm
; infill extrusion width = 0.50mm
; solid infill extrusion width = 0.50mm
; top infill extrusion width = 0.45mm
; first layer extrusion width = 0.42mm

M73 P0 R39
M73 Q0 S39
;TYPE:Custom
M862.3 P "MK3S" ; printer model check
M862.1 P0.4 ; nozzle diameter check
M115 U3.10.0 ; tell printer latest fw version
G90 ; use absolute coordinates
M83 ; extruder relative mode
M104 S230 ; set extruder temp
M140 S85 ; set bed temp
M190 S85 ; wait for bed temp
M109 S230 ; wait for extruder temp
G28 W ; home all without mesh bed level
G80 ; mesh bed leveling
G1 Z0.2 F720
G1 Y-3 F1000 ; go outside print area
G92 E0
G1 X60 E9 F1000 ; intro line
G1 X100 E12.5 F1000 ; intro line
G92 E0
M221 S95

; Don't change E values below. Excessive value can damage the printer.

M907 E538 ; set extruder motor current
G21 ; set units to millimeters
G90 ; use absolute coordinates
M83 ; use relative distances for extrusion
M900 K0.08 ; Filament gcode LA 1.5
M900 K45 ; Filament gcode LA 1.0
M107
;LAYER_CHANGE
;Z:0.2
;HEIGHT:0.2
;BEFORE_LAYER_CHANGE
G92 E0.0
;0.2


G1 E-1 F2100
G1 Z.2 F720
;AFTER_LAYER_CHANGE
;0.2
G1 Z.4
G1 X107.16 Y89.896 F10800
G1 Z.2 F720
G1 E1 F2100
M204 S800
;TYPE:Skirt/Brim
;WIDTH:0.42
G1 F1200
G1 X108.398 Y88.545 E.05745
G1 X109.896 Y87.161 E.06395
G1 X111.508 Y85.912 E.06394
G1 X113.223 Y84.809 E.06393
G1 X115.027 Y83.859 E.06393
G1 X117.103 Y82.999 E.07046
G1 X119.05 Y82.395 E.06392
G1 X121.043 Y81.962 E.06395
G1 X122.859 Y81.723 E.05743
G1 X124.896 Y81.625 E.06394
G1 X126.934 Y81.705 E.06395
G1 X128.957 Y81.962 E.06394
G1 X131.15 Y82.448 E.07043
G1 X133.092 Y83.07 E.06394
G1 X134.973 Y83.859 E.06396
G1 X136.777 Y84.809 E.06393
G1 X138.322 Y85.793 E.05743
G1 X139.946 Y87.027 E.06395
G1 X141.455 Y88.398 E.06393
G1 X142.84 Y89.896 E.06397
G1 X144.088 Y91.508 E.06392
G1 X145.191 Y93.223 E.06393
G1 X146.141 Y95.027 E.06393
G1 X147.001 Y97.103 E.07046
G1 X147.605 Y99.05 E.06392
G1 X148.038 Y101.043 E.06395
G1 X148.295 Y103.066 E.06394
G1 X148.375 Y104.896 E.05743
G1 X148.295 Y106.934 E.06395
G1 X148.038 Y108.957 E.06394
G1 X147.552 Y111.15 E.07043
G1 X146.93 Y113.092 E.06394
G1 X146.141 Y114.973 E.06396
G1 X145.191 Y116.777 E.06393
G1 X144.207 Y118.322 E.05743
G1 X142.973 Y119.946 E.06395
G1 X141.602 Y121.455 E.06393
G1 X140.104 Y122.84 E.06397
G1 X138.492 Y124.088 E.06392
G1 X136.777 Y125.191 E.06393
G1 X134.973 Y126.141 E.06393
G1 X132.897 Y127.001 E.07046
G1 X130.95 Y127.605 E.06392
G1 X128.957 Y128.038 E.06395
G1 X126.934 Y128.295 E.06394
G1 X125.104 Y128.375 E.05743
G1 X123.066 Y128.295 E.06395
G1 X121.043 Y128.038 E.06394
G1 X118.85 Y127.552 E.07043
G1 X116.908 Y126.93 E.06394
G1 X115.027 Y126.141 E.06396
G1 X113.402 Y125.295 E.05744
G1 X111.678 Y124.207 E.06392
G1 X110.054 Y122.973 E.06395
G1 X108.545 Y121.602 E.06393
G1 X107.16 Y120.104 E.06397
G1 X105.912 Y118.492 E.06392
G1 X104.705 Y116.598 E.07042
G1 X103.771 Y114.785 E.06395
G1 X102.999 Y112.897 E.06395
G1 X102.395 Y110.95 E.06392
G1 X101.962 Y108.957 E.06395
G1 X101.723 Y107.141 E.05743
G1 X101.625 Y105.104 E.06394
G1 X101.705 Y103.066 E.06395
G1 X101.962 Y101.043 E.06394
G1 X102.395 Y99.05 E.06395
G1 X102.999 Y97.103 E.06392
G1 X103.859 Y95.027 E.07046
G1 X104.809 Y93.223 E.06393
G1 X105.793 Y91.678 E.05743
G1 X107.124 Y89.943 E.06856
M204 S1000
; printing object CAN_Membrane_Air_Horn_v22-1_Dresden id:0 copy 0
;WIPE_START
G1 F8640
G1 X108.398 Y88.545 E-.43673
G1 X109.896 Y87.161 E-.47092
G1 X110.212 Y86.916 E-.09235
;WIPE_END
G1 Z.4 F720
G1 X109.517 Y92.008 F10800
G1 Z.2 F720
G1 E1 F2100
M204 S800
;TYPE:Perimeter
;WIDTH:0.419999
G1 F1200
G1 X110.708 Y90.708 E.05528
G1 X112.008 Y89.517 E.05528
G1 X113.407 Y88.443 E.0553
G1 X114.894 Y87.496 E.05528
G1 X116.458 Y86.682 E.05528
G1 X118.087 Y86.007 E.05529
G1 X119.769 Y85.477 E.05529
G1 X121.49 Y85.095 E.05527
G1 X123.238 Y84.865 E.05528
G1 X125 Y84.788 E.0553
G1 X126.762 Y84.865 E.0553
G1 X128.51 Y85.095 E.05528
G1 X130.231 Y85.477 E.05527
G1 X131.913 Y86.007 E.05529
G1 X133.542 Y86.682 E.05529
G1 X135.106 Y87.496 E.05528
G1 X136.593 Y88.443 E.05528
G1 X137.992 Y89.517 E.0553
G1 X139.292 Y90.708 E.05528
G1 X140.483 Y92.008 E.05528
G1 X141.557 Y93.407 E.0553
G1 X142.504 Y94.894 E.05528
G1 X143.318 Y96.458 E.05528
G1 X143.993 Y98.087 E.05529
G1 X144.523 Y99.769 E.05529
G1 X144.905 Y101.49 E.05527
G1 X145.135 Y103.238 E.05528
G1 X145.21 Y105.044 E.05667
G1 X145.135 Y106.762 E.05392
G1 X144.905 Y108.51 E.05528
G1 X144.523 Y110.231 E.05527
G1 X143.993 Y111.913 E.05529
G1 X143.318 Y113.542 E.05529
G1 X142.504 Y115.106 E.05528
G1 X141.557 Y116.593 E.05528
G1 X140.483 Y117.992 E.0553
G1 X139.292 Y119.292 E.05528
G1 X137.992 Y120.483 E.05528
G1 X136.593 Y121.557 E.0553
G1 X135.106 Y122.504 E.05528
G1 X133.542 Y123.318 E.05528
G1 X131.913 Y123.993 E.05529
G1 X130.231 Y124.523 E.05529
G1 X128.51 Y124.905 E.05527
G1 X126.762 Y125.135 E.05528
G1 X125 Y125.212 E.0553
G1 X123.238 Y125.135 E.0553
G1 X121.49 Y124.905 E.05528
G1 X119.769 Y124.523 E.05527
G1 X118.087 Y123.993 E.05529
G1 X116.458 Y123.318 E.05529
G1 X114.894 Y122.504 E.05528
G1 X113.407 Y121.557 E.05528
G1 X112.008 Y120.483 E.0553
G1 X110.708 Y119.292 E.05528
G1 X109.517 Y117.992 E.05528
G1 X108.443 Y116.593 E.0553
G1 X107.496 Y115.106 E.05528
G1 X106.682 Y113.542 E.05528
G1 X106.007 Y111.913 E.05529
G1 X105.477 Y110.231 E.05529
G1 X105.095 Y108.51 E.05527
G1 X104.865 Y106.762 E.05528
G1 X104.827 Y105.902 E.02699
M73 P0 R38
G1 X104.973 Y106.354 E.01489
G1 X105.304 Y106.926 E.02072
G1 X105.768 Y107.393 E.02064
G1 X106.216 Y107.652 E.01623
G1 X106.798 Y107.778 E.01867
G1 X107.092 Y107.76 E.00924
G1 X107.108 Y108.174 E.01299
G1 X107.431 Y109.678 E.04823
G1 X107.906 Y111.195 E.04984
G1 X108.511 Y112.662 E.04975
G1 X109.242 Y114.07 E.04974
G1 X110.092 Y115.408 E.0497
G1 X111.056 Y116.668 E.04974
G1 X112.126 Y117.839 E.04974
G1 X113.332 Y118.944 E.05129
G1 X114.592 Y119.908 E.04974
G1 X115.93 Y120.758 E.0497
G1 X117.338 Y121.489 E.04974
G1 X118.758 Y122.077 E.04819
G1 X120.27 Y122.556 E.04973
G1 X121.818 Y122.901 E.04973
G1 X123.391 Y123.11 E.04975
G1 X124.975 Y123.182 E.04972
G1 X126.56 Y123.115 E.04974
G1 X128.182 Y122.901 E.0513
G1 X129.73 Y122.556 E.04973
G1 X131.242 Y122.077 E.04973
G1 X132.706 Y121.468 E.04972
G1 X134.112 Y120.734 E.04973
G1 X135.449 Y119.879 E.04976
G1 X136.706 Y118.912 E.04973
G1 X137.839 Y117.874 E.04818
G1 X138.912 Y116.706 E.04973
G1 X139.908 Y115.408 E.0513
G1 X140.758 Y114.07 E.0497
G1 X141.489 Y112.662 E.04974
G1 X142.077 Y111.242 E.04819
G1 X142.556 Y109.73 E.04973
G1 X142.91 Y108.133 E.05129
G1 X143.115 Y106.56 E.04974
G1 X143.182 Y104.975 E.04974
G1 X143.11 Y103.391 E.04972
M73 Q1 S39
G1 X142.901 Y101.818 E.04975
G1 X142.556 Y100.27 E.04973
G1 X142.077 Y98.758 E.04973
M73 P1 R38
G1 X141.468 Y97.294 E.04972
G1 X140.734 Y95.888 E.04973
G1 X139.879 Y94.551 E.04976
G1 X138.912 Y93.294 E.04973
G1 X137.839 Y92.126 E.04973
G1 X136.706 Y91.088 E.04818
G1 X135.449 Y90.121 E.04973
G1 X134.112 Y89.266 E.04976
G1 X132.706 Y88.532 E.04973
G1 X131.242 Y87.923 E.04972
G1 X129.682 Y87.431 E.05129
G1 X128.133 Y87.09 E.04973
G1 X126.56 Y86.885 E.04974
G1 X124.975 Y86.818 E.04974
G1 X123.391 Y86.89 E.04972
G1 X121.818 Y87.099 E.04975
G1 X120.27 Y87.444 E.04973
G1 X118.758 Y87.923 E.04973
G1 X117.294 Y88.532 E.04972
G1 X115.888 Y89.266 E.04973
G1 X114.551 Y90.121 E.04976
G1 X113.294 Y91.088 E.04973
G1 X112.126 Y92.161 E.04973
G1 X111.056 Y93.332 E.04974
G1 X110.092 Y94.592 E.04974
G1 X109.242 Y95.93 E.0497
G1 X108.511 Y97.338 E.04974
G1 X107.906 Y98.805 E.04975
G1 X107.431 Y100.318 E.04972
G1 X107.108 Y101.826 E.04835
G1 X107.092 Y102.24 E.01299
G1 X107.011 Y102.224 E.00259
G1 X106.677 Y102.245 E.01049
G1 X106.171 Y102.372 E.01636
G1 X105.638 Y102.712 E.01982
G1 X105.222 Y103.187 E.0198
G1 X104.973 Y103.646 E.01637
G1 X104.827 Y104.098 E.01489
G1 X104.865 Y103.238 E.02699
G1 X105.095 Y101.49 E.05528
G1 X105.477 Y99.769 E.05527
G1 X106.007 Y98.087 E.05529
G1 X106.682 Y96.458 E.05529
G1 X107.496 Y94.894 E.05528
G1 X108.443 Y93.407 E.05528
M73 Q1 S38
G1 X109.48 Y92.055 E.05342
M204 S1000
G1 X109.227 Y91.765 F10800
M204 S800
;TYPE:External perimeter
G1 F1200
G1 X110.441 Y90.441 E.05632
G1 X111.765 Y89.227 E.05632
G1 X113.19 Y88.134 E.05631
G1 X114.705 Y87.169 E.05632
G1 X116.298 Y86.339 E.05632
G1 X117.958 Y85.652 E.05633
G1 X119.671 Y85.112 E.05632
G1 X121.425 Y84.723 E.05633
G1 X123.205 Y84.489 E.05629
G1 X125 Y84.41 E.05634
G1 X126.795 Y84.489 E.05634
G1 X128.575 Y84.723 E.05629
G1 X130.329 Y85.112 E.05633
G1 X132.042 Y85.652 E.05632
G1 X133.702 Y86.339 E.05633
G1 X135.295 Y87.169 E.05632
G1 X136.81 Y88.134 E.05632
G1 X138.235 Y89.227 E.05631
G1 X139.559 Y90.441 E.05632
G1 X140.773 Y91.765 E.05632
G1 X141.866 Y93.19 E.05631
G1 X142.831 Y94.705 E.05632
G1 X143.661 Y96.298 E.05632
G1 X144.348 Y97.958 E.05633
G1 X144.888 Y99.671 E.05632
G1 X145.277 Y101.425 E.05633
G1 X145.511 Y103.205 E.05629
G1 X145.587 Y105.061 E.05824
G1 X145.511 Y106.795 E.05442
G1 X145.277 Y108.575 E.05629
G1 X144.888 Y110.329 E.05633
G1 X144.348 Y112.042 E.05632
G1 X143.661 Y113.702 E.05633
G1 X142.831 Y115.295 E.05632
G1 X141.866 Y116.81 E.05632
G1 X140.773 Y118.235 E.05631
G1 X139.559 Y119.559 E.05632
G1 X138.235 Y120.773 E.05632
G1 X136.81 Y121.866 E.05631
G1 X135.295 Y122.831 E.05632
G1 X133.702 Y123.661 E.05632
G1 X132.042 Y124.348 E.05633
G1 X130.329 Y124.888 E.05632
G1 X128.575 Y125.277 E.05633
G1 X126.795 Y125.511 E.05629
G1 X125 Y125.59 E.05634
G1 X123.205 Y125.511 E.05634
G1 X121.425 Y125.277 E.05629
G1 X119.671 Y124.888 E.05633
G1 X117.958 Y124.348 E.05632
G1 X116.298 Y123.661 E.05633
G1 X114.705 Y122.831 E.05632
G1 X113.19 Y121.866 E.05632
G1 X111.765 Y120.773 E.05631
G1 X110.441 Y119.559 E.05632
G1 X109.227 Y118.235 E.05632
G1 X108.134 Y116.81 E.05631
G1 X107.169 Y115.295 E.05632
G1 X106.339 Y113.702 E.05632
G1 X105.652 Y112.042 E.05633
G1 X105.112 Y110.329 E.05632
G1 X104.723 Y108.575 E.05633
G1 X104.489 Y106.795 E.05629
G1 X104.466 Y106.273 E.01638
;WIDTH:0.459449
G1 X104.479 Y106.11 E.00566
;WIDTH:0.498899
G1 X104.491 Y105.947 E.0062
;WIDTH:0.538349
G1 X104.504 Y105.783 E.00678
;WIDTH:0.577799
G1 X104.516 Y105.62 E.00727
G1 X104.485 Y104.94 E.03027
;WIDTH:0.585343
G1 X104.525 Y104.277 E.02996
G1 X104.51 Y104.139 E.00626
;WIDTH:0.544007
G1 X104.495 Y104.002 E.00574
;WIDTH:0.502671
G1 X104.481 Y103.864 E.0053
;WIDTH:0.461335
G1 X104.466 Y103.727 E.00479
;WIDTH:0.419999
G1 X104.489 Y103.205 E.01638
G1 X104.723 Y101.425 E.05629
G1 X105.112 Y99.671 E.05633
G1 X105.652 Y97.958 E.05632
G1 X106.339 Y96.298 E.05633
G1 X107.169 Y94.705 E.05632
G1 X108.134 Y93.19 E.05632
G1 X109.191 Y91.813 E.05443
M204 S1000
G1 X109.621 Y91.835 F10800
;WIPE_START
G1 F8640
G1 X110.441 Y90.441 E-.42856
G1 X111.765 Y89.227 E-.41478
G1 X112.303 Y88.814 E-.15666
;WIPE_END
G1 Z.4 F720
G1 X107.517 Y102.757 F10800
G1 Z.2 F720
G1 E1 F2100
M204 S800
G1 F1200
G1 X107.47 Y102.163 E.01868
G1 X107.477 Y101.905 E.00809
G1 X107.8 Y100.4 E.04826
G1 X108.266 Y98.918 E.04871
G1 X108.867 Y97.468 E.04921
G1 X109.585 Y96.09 E.04872
G1 X110.42 Y94.781 E.04868
G1 X111.366 Y93.549 E.0487
G1 X112.416 Y92.404 E.04871
G1 X113.561 Y91.355 E.04869
G1 X114.781 Y90.42 E.04819
G1 X116.09 Y89.585 E.04868
G1 X117.468 Y88.867 E.04872
G1 X118.903 Y88.272 E.04871
G1 X120.384 Y87.804 E.0487
G1 X121.9 Y87.467 E.04869
G1 X123.44 Y87.263 E.04871
G1 X125.008 Y87.195 E.04921
G1 X126.56 Y87.263 E.04871
G1 X128.084 Y87.464 E.0482
G1 X129.6 Y87.8 E.04869
G1 X131.082 Y88.266 E.04871
G1 X132.517 Y88.86 E.0487
G1 X133.895 Y89.576 E.04869
G1 X135.206 Y90.41 E.04872
G1 X136.439 Y91.355 E.04871
G1 X137.584 Y92.404 E.04869
G1 X138.634 Y93.549 E.04871
G1 X139.58 Y94.781 E.0487
G1 X140.415 Y96.09 E.04868
G1 X141.14 Y97.483 E.04924
G1 X141.734 Y98.918 E.0487
G1 X142.2 Y100.4 E.04871
G1 X142.533 Y101.9 E.04818
G1 X142.737 Y103.44 E.04871
G1 X142.805 Y104.992 E.04871
G1 X142.738 Y106.544 E.04871
G1 X142.536 Y108.084 E.0487
G1 X142.2 Y109.6 E.04869
G1 X141.728 Y111.097 E.04922
G1 X141.133 Y112.532 E.04871
G1 X140.415 Y113.91 E.04872
G1 X139.58 Y115.219 E.04868
G1 X138.634 Y116.451 E.0487
G1 X137.584 Y117.596 E.04871
G1 X136.439 Y118.645 E.04869
G1 X135.206 Y119.59 E.04871
G1 X133.895 Y120.424 E.04872
G1 X132.532 Y121.133 E.04817
G1 X131.097 Y121.728 E.04871
G1 X129.616 Y122.196 E.0487
G1 X128.1 Y122.533 E.04869
G1 X126.56 Y122.737 E.04871
G1 X125.008 Y122.805 E.04871
G1 X123.456 Y122.738 E.04871
G1 X121.916 Y122.536 E.0487
G1 X120.384 Y122.196 E.0492
G1 X118.903 Y121.728 E.0487
G1 X117.468 Y121.133 E.04871
G1 X116.105 Y120.424 E.04817
G1 X114.794 Y119.59 E.04872
G1 X113.561 Y118.645 E.04871
G1 X112.416 Y117.596 E.04869
G1 X111.366 Y116.451 E.04871
G1 X110.42 Y115.219 E.0487
G1 X109.585 Y113.91 E.04868
G1 X108.867 Y112.532 E.04872
G1 X108.272 Y111.097 E.04871
G1 X107.799 Y109.599 E.04925
G1 X107.477 Y108.095 E.04823
G1 X107.467 Y107.585 E.01599
G1 X107.517 Y107.243 E.01084
G1 X107.379 Y107.318 E.00492
G1 X106.88 Y107.409 E.0159
G1 X106.376 Y107.31 E.0161
G1 X105.915 Y107.032 E.01688
G1 X105.554 Y106.633 E.01687
G1 X105.304 Y106.174 E.01639
;WIDTH:0.468883
G1 X105.224 Y105.993 E.00701
;WIDTH:0.517767
G1 X105.145 Y105.813 E.00776
;WIDTH:0.56665
G1 X105.065 Y105.633 E.00858
G1 X105.005 Y105.024 E.02665
;WIDTH:0.577799
G1 X105.05 Y104.416 E.02711
G1 X105.11 Y104.278 E.00669
;WIDTH:0.538349
G1 X105.169 Y104.14 E.00618
;WIDTH:0.498899
G1 X105.229 Y104.002 E.00571
;WIDTH:0.459449
G1 X105.289 Y103.863 E.00524
;WIDTH:0.419999
G1 X105.554 Y103.367 E.01763
G1 X105.915 Y102.968 E.01687
G1 X106.361 Y102.698 E.01635
G1 X106.866 Y102.593 E.01617
G1 X107.379 Y102.683 E.01633
G1 X107.464 Y102.728 E.00302
M204 S1000
G1 X107.327 Y102.405 F10800
;WIPE_START
G1 F8640
G1 X107.47 Y102.163 E-.13047
G1 X107.477 Y101.905 E-.05959
G1 X107.8 Y100.4 E-.35542
G1 X108.266 Y98.918 E-.35872
G1 X108.425 Y98.535 E-.0958
;WIPE_END
G1 Z.4 F720
G1 X140.837 Y92.655 F10800
G1 Z.2 F720
G1 E1 F2100
M204 S800
;TYPE:Solid infill
;WIDTH:0.422501
G1 F1200
G1 X139.073 Y90.891 E.07874
G1 X137.81 Y89.733 E.05408
G1 X136.431 Y88.675 E.05486
G1 X136.127 Y88.482 E.01137
G1 X141.518 Y93.873 E.24063
G1 X142.259 Y95.035 E.0435
G1 X142.384 Y95.275 E.00854
G1 X134.725 Y87.616 E.34187
G1 X133.605 Y87.033 E.03985
G1 X142.967 Y96.395 E.41788
G1 X143.062 Y96.578 E.00651
G1 X143.379 Y97.344 E.02617
G1 X132.656 Y86.621 E.47863
G1 X131.75 Y86.252 E.03088
G1 X134.987 Y89.489 E.14449
G1 X134.233 Y89.009 E.02821
G1 X133.685 Y88.724 E.0195
G1 X130.966 Y86.005 E.12136
G1 X130.182 Y85.758 E.02594
G1 X132.609 Y88.184 E.10831
G1 X131.693 Y87.805 E.03129
G1 X129.49 Y85.602 E.09833
G1 X128.8 Y85.449 E.02231
G1 X130.854 Y87.503 E.09168
G1 X130.069 Y87.255 E.02598
G1 X128.147 Y85.332 E.08581
G1 X127.528 Y85.251 E.0197
G1 X129.348 Y87.071 E.08124
G1 X128.658 Y86.918 E.02231
G1 X126.91 Y85.17 E.07802
G1 X126.333 Y85.129 E.01826
G1 X127.99 Y86.786 E.07396
G1 X127.372 Y86.705 E.01967
G1 X125.772 Y85.105 E.07142
G1 X125.21 Y85.08 E.01776
G1 X126.754 Y86.624 E.06892
G1 X126.18 Y86.586 E.01816
G1 X124.681 Y85.087 E.06691
G1 X124.166 Y85.109 E.01627
G1 X125.618 Y86.562 E.06483
G1 X125.057 Y86.537 E.01772
G1 X123.65 Y85.131 E.06278
G1 X123.145 Y85.162 E.01597
G1 X124.539 Y86.556 E.06222
G1 X124.025 Y86.579 E.01624
G1 X122.671 Y85.225 E.06044
G1 X122.197 Y85.287 E.01509
G1 X123.511 Y86.602 E.05867
G1 X123.025 Y86.653 E.01542
G1 X121.722 Y85.35 E.05816
G1 X121.269 Y85.434 E.01454
G1 X122.551 Y86.715 E.0572
G1 X122.077 Y86.778 E.01509
G1 X120.83 Y85.531 E.05566
G1 X120.391 Y85.628 E.01419
G1 X121.617 Y86.855 E.05475
G1 X121.177 Y86.952 E.01422
G1 X119.951 Y85.726 E.05472
G1 X119.842 Y85.75 E.00352
G1 X119.535 Y85.847 E.01016
M73 Q2 S38
G1 X120.738 Y87.049 E.05367
G1 X120.299 Y87.147 E.0142
G1 X119.127 Y85.975 E.05231
G1 X118.719 Y86.104 E.01351
G1 X119.885 Y87.27 E.05205
G1 X119.477 Y87.399 E.01351
M73 P2 R38
G1 X118.311 Y86.233 E.05205
G1 X118.184 Y86.273 E.0042
G1 X117.922 Y86.381 E.00894
G1 X119.069 Y87.527 E.05117
G1 X118.662 Y87.658 E.01349
