; generated by PrusaSlicer 2.5.0+linux-x64-GTK3 on 2023-02-26 at 10:26:28 UTC

; 

; external perimeters extrusion width = 0.60mm
; perimeters extrusion width = 0.50mm
; infill extrusion width = 0.50mm
; solid infill extrusion width = 0.50mm
; top infill extrusion width = 0.45mm
; first layer extrusion width = 0.42mm

M73 P0 R15
M73 Q0 S15
M107
;TYPE:Custom
M862.3 P "MK3S" ; printer model check
M862.1 P0.4 ; nozzle diameter check
M115 U3.10.0 ; tell printer latest fw version
G90 ; use absolute coordinates
M83 ; extruder relative mode
M104 S230 ; set extruder temp
M140 S85 ; set bed temp
M190 S85 ; wait for bed temp
M109 S230 ; wait for extruder temp
G28 W ; home all without mesh bed level
G80 ; mesh bed leveling
G1 Z0.2 F720
G1 Y-3 F1000 ; go outside print area
G92 E0
G1 X60 E9 F1000 ; intro line
G1 X100 E12.5 F1000 ; intro line
G92 E0
M221 S95

; Don't change E values below. Excessive value can damage the printer.

M907 E538 ; set extruder motor current
G21 ; set units to millimeters
G90 ; use absolute coordinates
M83 ; use relative distances for extrusion
M900 K0.08 ; Filament gcode LA 1.5
M900 K45 ; Filament gcode LA 1.0
M107
;LAYER_CHANGE
;Z:0.2
;HEIGHT:0.2
;BEFORE_LAYER_CHANGE
G92 E0.0
;0.2


G1 E-1 F2100
G1 Z.2 F720
;AFTER_LAYER_CHANGE
;0.2
G1 Z.4
G1 X105.687 Y88.852 F10800
G1 Z.2 F720
G1 E1 F2100
M204 S800
;TYPE:Skirt/Brim
;WIDTH:0.42
G1 F1200
G1 X107.033 Y87.383 E.06247
G1 X108.648 Y85.89 E.06897
G1 X110.38 Y84.55 E.06865
G1 X112.238 Y83.354 E.06929
G1 X114.366 Y82.246 E.07523
G1 X116.409 Y81.409 E.06921
G1 X118.51 Y80.757 E.06897
G1 X120.659 Y80.289 E.06897
G1 X122.841 Y80.011 E.06897
G1 X124.832 Y79.924 E.06247
G1 X127 Y80.01 E.06803
G1 X129.212 Y80.289 E.06991
G1 X131.361 Y80.757 E.06897
G1 X133.657 Y81.48 E.07547
G1 X135.686 Y82.33 E.06897
G1 X137.633 Y83.354 E.06897
G1 X139.522 Y84.574 E.07052
G1 X141.223 Y85.89 E.06742
G1 X142.692 Y87.236 E.06248
G1 X144.185 Y88.852 E.06897
G1 X145.65 Y90.761 E.07546
M73 Q1 S15
G1 X146.824 Y92.621 E.06897
G1 X147.832 Y94.577 E.06897
G1 X148.665 Y96.612 E.06897
M73 P1 R15
G1 X149.318 Y98.713 E.06897
G1 X149.785 Y100.863 E.06897
G1 X150.063 Y103.039 E.0688
G1 X150.15 Y105.035 E.06263
G1 X150.063 Y107.233 E.06899
G1 X149.785 Y109.415 E.06897
G1 X149.318 Y111.565 E.06897
G1 X148.665 Y113.666 E.06897
G1 X147.749 Y115.877 E.07507
G1 X146.72 Y117.836 E.06937
G1 X145.531 Y119.687 E.06897
G1 X144.318 Y121.267 E.06247
G1 X142.852 Y122.88 E.06832
G1 X141.223 Y124.388 E.06962
G1 X139.483 Y125.734 E.06897
G1 X137.633 Y126.924 E.06897
G1 X135.686 Y127.948 E.06897
G1 X133.462 Y128.869 E.07547
G1 X131.361 Y129.521 E.06897
G1 X129.198 Y129.991 E.06942
G1 X127.03 Y130.267 E.06852
G1 X125.039 Y130.354 E.06247
G1 X122.841 Y130.267 E.06897
G1 X120.659 Y129.989 E.06897
G1 X118.309 Y129.468 E.07546
G1 X116.214 Y128.798 E.06897
G1 X114.185 Y127.948 E.06897
G1 X112.238 Y126.924 E.06897
G1 X110.348 Y125.704 E.07053
G1 X108.648 Y124.388 E.06741
G1 X107.179 Y123.042 E.06248
G1 X105.687 Y121.426 E.06897
G1 X104.34 Y119.687 E.06897
G1 X103.047 Y117.657 E.07547
G1 X102.039 Y115.701 E.06897
G1 X101.206 Y113.666 E.06897
G1 X100.553 Y111.565 E.06897
G1 X100.086 Y109.415 E.06897
G1 X99.808 Y107.233 E.06897
G1 X99.721 Y105.243 E.06247
G1 X99.808 Y103.045 E.06897
G1 X100.108 Y100.729 E.07322
G1 X100.59 Y98.571 E.06933
G1 X101.241 Y96.509 E.06778
G1 X102.127 Y94.389 E.07205
G1 X103.151 Y92.442 E.06897
G1 X104.34 Y90.591 E.06897
G1 X105.65 Y88.899 E.06709
M204 S1000
; printing object Cover_Membrane_Air_Horn_v18.stl id:0 copy 0
;WIPE_START
G1 F8640
G1 X107.033 Y87.383 E-.47389
G1 X108.547 Y85.983 E-.47611
;WIPE_END
G1 E-.05 F2100
G1 Z.4 F720
G1 X118.268 Y84.051 F10800
G1 Z.2 F720
G1 E1 F2100
M204 S800
;TYPE:Perimeter
;WIDTH:0.419999
G1 F1200
G1 X118.754 Y83.959 E.01552
G1 X119.657 Y83.713 E.02933
G1 X120.109 Y83.549 E.01508
G1 X120.009 Y84 E.01449
G1 X119.949 Y85 E.0314
G1 X119.948 Y95.919 E.34237
G1 X120.06 Y96.257 E.01115
G1 X120.293 Y96.44 E.0093
G1 X120.452 Y96.481 E.00513
G1 X120.744 Y96.436 E.00927
G1 X121.935 Y95.906 E.04089
G1 X123.921 Y95.484 E.06364
G1 X125.95 Y95.484 E.06364
G1 X127.936 Y95.906 E.06364
G1 X129.79 Y96.731 E.06364
G1 X131.432 Y97.924 E.06364
G1 X132.79 Y99.432 E.06364
G1 X133.805 Y101.19 E.06364
G1 X134.208 Y102.43 E.04089
G1 X134.47 Y103.17 E.0246
G1 X134.659 Y103.348 E.00813
G1 X144.868 Y109.241 E.36961
G1 X145.568 Y109.592 E.02456
G1 X146.04 Y109.785 E.01597
G1 X146.532 Y109.908 E.01593
G1 X146.369 Y110.376 E.01552
G1 X146.13 Y111.28 E.02933
G1 X146.047 Y111.754 E.01508
G1 X145.706 Y111.442 E.01449
G1 X144.87 Y110.89 E.0314
G1 X135.414 Y105.43 E.34237
G1 X135.065 Y105.358 E.01116
G1 X134.79 Y105.469 E.0093
G1 X134.675 Y105.585 E.00513
G1 X134.568 Y105.861 E.00927
G1 X134.432 Y107.158 E.04089
G1 X133.805 Y109.088 E.06364
G1 X132.79 Y110.846 E.06364
G1 X131.432 Y112.354 E.06364
M73 Q2 S15
G1 X129.79 Y113.547 E.06364
G1 X127.936 Y114.372 E.06364
M73 P2 R15
G1 X125.95 Y114.794 E.06364
G1 X123.921 Y114.794 E.06364
G1 X122.645 Y114.523 E.04089
G1 X121.874 Y114.38 E.0246
G1 X121.625 Y114.455 E.00813
G1 X111.417 Y120.35 E.36961
G1 X110.763 Y120.781 E.02457
G1 X110.36 Y121.093 E.01596
G1 X110.007 Y121.457 E.01593
G1 X109.683 Y121.082 E.01552
G1 X109.02 Y120.423 E.02933
G1 X108.651 Y120.114 E.01508
G1 X109.092 Y119.975 E.01449
G1 X109.988 Y119.527 E.0314
G1 X119.445 Y114.068 E.34238
G1 X119.681 Y113.802 E.01116
G1 X119.723 Y113.508 E.0093
G1 X119.68 Y113.351 E.00513
G1 X119.494 Y113.12 E.00927
G1 X118.439 Y112.354 E.04089
G1 X117.081 Y110.846 E.06364
G1 X116.066 Y109.088 E.06364
G1 X115.439 Y107.158 E.06364
G1 X115.227 Y105.139 E.06364
G1 X115.439 Y103.12 E.06364
G1 X116.066 Y101.19 E.06364
G1 X117.081 Y99.432 E.06364
G1 X117.954 Y98.463 E.04089
G1 X118.463 Y97.867 E.0246
G1 X118.523 Y97.614 E.00814
G1 X118.513 Y85.337 E.38493
G1 X118.407 Y84.54 E.02523
G1 X118.284 Y84.109 E.01404
M204 S1000
;WIPE_START
G1 F8640
G1 X118.754 Y83.959 E-.11392
G1 X119.657 Y83.713 E-.21601
G1 X120.109 Y83.549 E-.11102
G1 X120.009 Y84 E-.10669
G1 X119.949 Y85 E-.23123
G1 X119.949 Y85.741 E-.17113
;WIPE_END
G1 E-.05 F2100
G1 Z.4 F720
G1 X134.943 Y105.9 F10800
G1 Z.2 F720
G1 E1 F2100
M204 S800
;TYPE:External perimeter
G1 F1200
G1 X135.017 Y105.769 E.00471
G1 X135.195 Y105.743 E.00565
G1 X135.225 Y105.756 E.00103
G1 X144.681 Y111.217 E.34237
G1 X145.497 Y111.757 E.03068
G1 X145.905 Y112.14 E.01754
G1 X145.954 Y112.333 E.00625
G1 X145.638 Y113.196 E.02882
G1 X145.08 Y114.542 E.04568
G1 X144.184 Y116.262 E.06081
G1 X143.141 Y117.897 E.06081
G1 X141.96 Y119.435 E.06081
G1 X140.649 Y120.864 E.06081
G1 X139.219 Y122.174 E.06081
G1 X137.68 Y123.354 E.06081
G1 X136.044 Y124.396 E.06081
G1 X134.323 Y125.29 E.06081
G1 X132.547 Y126.026 E.06029
G1 X130.697 Y126.61 E.06081
G1 X128.804 Y127.031 E.06081
G1 X126.881 Y127.285 E.06081
G1 X124.944 Y127.37 E.06081
G1 X123.006 Y127.286 E.06081
G1 X121.067 Y127.031 E.06132
G1 X119.174 Y126.61 E.06081
G1 X117.324 Y126.026 E.06081
G1 X115.533 Y125.284 E.06081
G1 X113.827 Y124.396 E.06029
G1 X112.191 Y123.354 E.06081
G1 X110.652 Y122.174 E.06081
;WIDTH:0.419802
G1 X110.35 Y121.897 E.01286
;WIDTH:0.419999
G1 X110.307 Y121.675 E.00708
G1 X110.753 Y121.242 E.01948
G1 X111.596 Y120.682 E.03172
G1 X121.814 Y114.782 E.36997
G1 X121.947 Y114.76 E.00424
G1 X123.881 Y115.171 E.06198
G1 X125.99 Y115.171 E.06612
G1 X128.053 Y114.733 E.06612
G1 X129.979 Y113.875 E.06612
G1 X131.686 Y112.636 E.06612
G1 X133.097 Y111.068 E.06612
G1 X134.151 Y109.242 E.06612
G1 X134.803 Y107.236 E.06612
G1 X134.937 Y105.96 E.04025
M204 S1000
G1 X134.855 Y105.778 F10800
;WIPE_START
G1 F8640
G1 X135.017 Y105.769 E-.04769
G1 X135.195 Y105.743 E-.04163
G1 X135.225 Y105.756 E-.00756
G1 X138.425 Y107.604 E-.85312
;WIPE_END
G1 E-.05 F2100
G1 Z.4 F720
G1 X119.349 Y113.555 F10800
G1 Z.2 F720
G1 E1 F2100
M204 S800
G1 F1200
G1 X119.283 Y113.722 E.00565
G1 X119.256 Y113.741 E.00103
G1 X109.799 Y119.201 E.34238
G1 X108.924 Y119.637 E.03068
;WIDTH:0.420135
M73 P3 R15
M73 Q3 S15
G1 X108.388 Y119.799 E.01755
G1 X108.196 Y119.745 E.00626
;WIDTH:0.419802
G1 X107.9 Y119.422 E.01371
;WIDTH:0.41993
G1 X106.72 Y117.883 E.0608
G1 X105.679 Y116.247 E.0608
G1 X104.791 Y114.542 E.06028
G1 X104.048 Y112.75 E.0608
G1 X103.46 Y110.885 E.06132
;WIDTH:0.421159
G1 X103.037 Y108.963 E.06188
;WIDTH:0.419932
G1 X102.789 Y107.068 E.05991
G1 X102.705 Y105.147 E.06028
G1 X102.789 Y103.21 E.0608
G1 X103.041 Y101.287 E.0608
G1 X103.464 Y99.377 E.06132
G1 X104.059 Y97.501 E.06171
G1 X104.784 Y95.751 E.05936
G1 X105.679 Y94.031 E.0608
G1 X106.72 Y92.395 E.0608
G1 X107.9 Y90.856 E.0608
G1 X109.21 Y89.425 E.0608
G1 X110.652 Y88.104 E.06131
G1 X112.178 Y86.933 E.06028
G1 X113.813 Y85.891 E.0608
G1 X115.548 Y84.987 E.06132
;WIDTH:0.420322
G1 X117.336 Y84.248 E.06071
G1 X117.747 Y84.121 E.01352
;WIDTH:0.419999
G1 X117.929 Y84.203 E.00625
G1 X118.081 Y84.805 E.01948
G1 X118.136 Y85.337 E.01678
G1 X118.146 Y97.614 E.38493
G1 X118.097 Y97.741 E.00424
G1 X116.774 Y99.21 E.06198
G1 X115.72 Y101.036 E.06612
G1 X115.068 Y103.042 E.06612
G1 X114.848 Y105.139 E.06612
G1 X115.068 Y107.236 E.06612
G1 X115.72 Y109.242 E.06612
G1 X116.774 Y111.068 E.06612
G1 X118.186 Y112.636 E.06612
G1 X119.273 Y113.425 E.04213
G1 X119.318 Y113.503 E.00283
M204 S1000
G1 X119.509 Y113.637 F10800
;WIPE_START
G1 F8640
G1 X119.283 Y113.722 E-.05133
G1 X119.256 Y113.741 E-.00755
G1 X115.914 Y115.671 E-.89111
;WIPE_END
G1 E-.05 F2100
G1 Z.4 F720
G1 X110.031 Y122.102 F10800
G1 Z.2 F720
G1 E1 F2100
M204 S800
G1 F1200
G1 X109.615 Y121.58 E.02094
G1 X109.232 Y121.165 E.01769
G1 X108.696 Y120.636 E.02362
G1 X107.947 Y120.028 E.03025
;WIDTH:0.419802
G1 X107.601 Y119.652 E.01599
;WIDTH:0.41993
G1 X106.402 Y118.086 E.06183
G1 X105.344 Y116.421 E.06183
G1 X104.457 Y114.716 E.06028
G1 X103.683 Y112.848 E.06337
G1 X103.092 Y110.966 E.06184
;WIDTH:0.421159
G1 X102.663 Y109.012 E.0629
;WIDTH:0.419932
G1 X102.412 Y107.085 E.06094
G1 X102.328 Y105.164 E.06028
;WIDTH:0.420111
G1 X102.327 Y105.139 E.00077
G1 X102.328 Y105.114 E.00077
;WIDTH:0.419938
G1 X102.416 Y103.144 E.06183
G1 X102.667 Y101.238 E.06028
G1 X103.105 Y99.263 E.0634
G1 X103.708 Y97.364 E.06247
G1 X104.436 Y95.607 E.05961
G1 X105.344 Y93.857 E.06183
G1 X106.402 Y92.192 E.06183
G1 X107.633 Y90.588 E.06337
G1 X108.967 Y89.136 E.06183
G1 X110.423 Y87.805 E.06183
G1 X111.948 Y86.634 E.06028
G1 X113.61 Y85.573 E.06183
G1 X115.404 Y84.639 E.06338
;WIDTH:0.420328
G1 X117.191 Y83.899 E.06071
G1 X117.697 Y83.75 E.01657
;WIDTH:0.419999
G1 X118.358 Y83.651 E.02094
G1 X118.908 Y83.526 E.01769
G1 X119.634 Y83.326 E.02362
G1 X120.536 Y82.982 E.03025
;WIDTH:0.419801
G1 X121.034 Y82.871 E.01599
;WIDTH:0.419929
G1 X122.941 Y82.62 E.06028
G1 X124.883 Y82.533 E.06094
;WIDTH:0.421161
G1 X126.881 Y82.615 E.0629
;WIDTH:0.419928
G1 X128.837 Y82.871 E.06184
G1 X130.763 Y83.295 E.06183
G1 X132.691 Y83.903 E.06337
G1 X134.512 Y84.66 E.06183
G1 X136.261 Y85.573 E.06183
G1 X137.923 Y86.634 E.06183
G1 X139.448 Y87.805 E.06028
G1 X140.904 Y89.136 E.06183
G1 X142.27 Y90.626 E.06337
G1 X143.469 Y92.192 E.06183
G1 X144.502 Y93.814 E.06028
G1 X145.415 Y95.562 E.06183
G1 X146.171 Y97.384 E.06183
G1 X146.779 Y99.312 E.06337
G1 X147.195 Y101.189 E.06028
G1 X147.455 Y103.144 E.06183
G1 X147.543 Y105.114 E.06183
G1 X147.459 Y107.085 E.06183
G1 X147.204 Y109.04 E.06183
;WIDTH:0.419801
G1 X147.195 Y109.09 E.00159
;WIDTH:0.420903
G1 X147.052 Y109.625 E.01739
G1 X146.834 Y110.187 E.01894
;WIDTH:0.419999
G1 X146.667 Y110.726 E.01769
G1 X146.477 Y111.455 E.02362
G1 X146.331 Y112.366 E.02893
;WIDTH:0.418162
G1 X146.165 Y112.865 E.01643
;WIDTH:0.419999
G1 X145.988 Y113.336 E.01577
M73 Q4 S15
G1 X145.435 Y114.671 E.0453
G1 X144.502 Y116.464 E.06338
G1 X143.44 Y118.126 E.06184
G1 X142.27 Y119.652 E.06029
M73 P4 R15
G1 X140.904 Y121.142 E.06338
G1 X139.486 Y122.442 E.06029
G1 X137.923 Y123.644 E.06184
G1 X136.218 Y124.73 E.06338
G1 X134.468 Y125.639 E.06184
G1 X132.691 Y126.375 E.06029
G1 X130.763 Y126.983 E.06338
G1 X128.837 Y127.407 E.06184
G1 X126.93 Y127.658 E.06029
G1 X124.911 Y127.747 E.06338
G1 X122.941 Y127.658 E.06184
G1 X121.034 Y127.407 E.06029
G1 X119.108 Y126.983 E.06184
G1 X117.18 Y126.375 E.06338
G1 X115.359 Y125.618 E.06184
G1 X113.653 Y124.73 E.06029
G1 X111.948 Y123.644 E.06338
G1 X110.423 Y122.473 E.06029
G1 X110.074 Y122.144 E.01504
M204 S1000
G1 X110.149 Y121.72 F10800
;WIPE_START
G1 F8640
G1 X109.615 Y121.58 E-.16794
G1 X109.232 Y121.165 E-.13024
G1 X108.696 Y120.636 E-.17397
G1 X107.947 Y120.028 E-.22279
G1 X107.601 Y119.652 E-.11785
G1 X107.24 Y119.18 E-.13721
;WIPE_END
G1 E-.05 F2100
G1 Z.4 F720
G1 X120.591 Y96.091 F10800
G1 Z.2 F720
G1 E1 F2100
M204 S800
G1 F1200
G1 X120.441 Y96.093 E.00471
G1 X120.328 Y95.952 E.00565
G1 X120.326 Y95.919 E.00103
G1 X120.326 Y85 E.34237
G1 X120.386 Y84.023 E.03068
;WIDTH:0.420135
G1 X120.513 Y83.478 E.01755
G1 X120.656 Y83.339 E.00626
;WIDTH:0.419802
G1 X121.083 Y83.244 E.01371
;WIDTH:0.419931
G1 X122.99 Y82.993 E.06028
G1 X124.899 Y82.909 E.05991
;WIDTH:0.421161
G1 X126.865 Y82.992 E.06188
;WIDTH:0.419932
G1 X128.788 Y83.244 E.06081
G1 X130.681 Y83.663 E.0608
G1 X132.547 Y84.252 E.06131
G1 X134.338 Y84.994 E.0608
G1 X136.058 Y85.891 E.0608
G1 X137.693 Y86.933 E.0608
G1 X139.219 Y88.104 E.06028
G1 X140.649 Y89.414 E.0608
G1 X141.971 Y90.856 E.06131
G1 X143.151 Y92.395 E.0608
G1 X144.184 Y94.016 E.06028
G1 X145.08 Y95.736 E.0608
G1 X145.823 Y97.528 E.0608
G1 X146.411 Y99.393 E.06131
G1 X146.827 Y101.271 E.06028
G1 X147.081 Y103.193 E.0608
G1 X147.166 Y105.131 E.0608
G1 X147.083 Y107.068 E.0608
G1 X146.83 Y108.991 E.0608
;WIDTH:0.420903
G1 X146.718 Y109.452 E.01491
G1 X146.57 Y109.539 E.00539
;WIDTH:0.419999
G1 X145.973 Y109.37 E.01948
G1 X145.056 Y108.915 E.03208
G1 X134.847 Y103.021 E.36961
G1 X134.762 Y102.916 E.00424
G1 X134.151 Y101.036 E.06198
G1 X133.097 Y99.21 E.06612
G1 X131.686 Y97.642 E.06612
G1 X129.979 Y96.403 E.06612
G1 X128.053 Y95.545 E.06612
G1 X125.99 Y95.107 E.06612
G1 X123.881 Y95.107 E.06612
G1 X121.818 Y95.545 E.06612
G1 X120.646 Y96.067 E.04025
M204 S1000
G1 X120.529 Y96.229 F10800
;WIPE_START
G1 F8640
G1 X120.441 Y96.093 E-.04772
G1 X120.328 Y95.952 E-.04157
G1 X120.326 Y95.919 E-.00759
G1 X120.326 Y92.225 E-.85312
;WIPE_END
G1 E-.05 F2100
G1 Z.4 F720
G1 X145.072 Y109.469 F10800
G1 Z.2 F720
G1 E1 F2100
M204 S800
;TYPE:Solid infill
;WIDTH:0.421975
G1 F1200
G1 X146.056 Y110.454 E.04387
G1 X145.945 Y110.878 E.01384
G1 X144.316 Y109.249 E.07263
G1 X143.047 Y108.517 E.04615
G1 X145.51 Y110.979 E.10977
G1 X145.014 Y110.647 E.01882
G1 X144.132 Y110.138 E.0321
G1 X141.779 Y107.785 E.10488
G1 X140.511 Y107.053 E.04615
G1 X142.864 Y109.405 E.10486
G1 X141.595 Y108.673 E.04617
G1 X139.243 Y106.321 E.10484
G1 X137.975 Y105.589 E.04615
G1 X140.326 Y107.94 E.10482
G1 X139.058 Y107.208 E.04617
G1 X136.243 Y104.393 E.12546
M204 S1000
;WIPE_START
G1 F8640
M73 Q5 S15
G1 X139.058 Y107.208 E-.91913
G1 X139.174 Y107.275 E-.03087
;WIPE_END
G1 E-.05 F2100
G1 Z.4 F720
G1 X133.075 Y100.153 F10800
G1 Z.2 F720
M73 P5 R15
G1 E1 F2100
M204 S800
G1 F1200
G1 X130.57 Y97.647 E.11169
G1 X129.648 Y96.977 E.03592
G1 X129.136 Y96.749 E.01766
G1 X133.344 Y100.958 E.18758
G1 X133.545 Y101.306 E.01267
G1 X133.732 Y101.882 E.0191
G1 X128.169 Y96.319 E.24796
G1 X127.848 Y96.176 E.0111
G1 X127.394 Y96.079 E.01463
G1 X133.991 Y102.677 E.29406
G1 X134.146 Y103.154 E.01583
G1 X134.233 Y103.325 E.00604
G1 X134.326 Y103.443 E.00474
G1 X134.511 Y103.589 E.00743
G1 X135.439 Y104.124 E.03375
G1 X137.789 Y106.475 E.10478
G1 X136.521 Y105.743 E.04617
G1 X126.713 Y95.935 E.43718
G1 X126.032 Y95.79 E.02194
G1 X135.354 Y105.112 E.41553
G1 X135.03 Y105.074 E.01028
G1 X134.852 Y105.146 E.00606
G1 X125.472 Y95.766 E.41808
G1 X124.936 Y95.766 E.0169
G1 X134.516 Y105.346 E.42701
G1 X134.448 Y105.415 E.00305
G1 X134.368 Y105.546 E.00483
G1 X134.326 Y105.692 E.0048
G1 X124.4 Y95.766 E.44243
G1 X123.95 Y95.766 E.01418
G1 X123.879 Y95.782 E.00229
G1 X134.253 Y106.155 E.4624
G1 X134.202 Y106.64 E.01537
G1 X123.437 Y95.875 E.47983
G1 X122.995 Y95.969 E.01425
G1 X134.147 Y107.121 E.49706
G1 X134.015 Y107.525 E.01341
M73 P5 R14
G1 X122.553 Y96.063 E.51091
