; generated by PrusaSlicer 2.5.0+linux-x64-GTK3 on 2023-02-25 at 22:33:02 UTC

; 

; external perimeters extrusion width = 0.60mm
; perimeters extrusion width = 0.50mm
; infill extrusion width = 0.50mm
; solid infill extrusion width = 0.50mm
; top infill extrusion width = 0.45mm
; first layer extrusion width = 0.42mm

M73 P0 R50
M73 Q0 S50
M107
;TYPE:Custom
M862.3 P "MK3S" ; printer model check
M862.1 P0.4 ; nozzle diameter check
M115 U3.10.0 ; tell printer latest fw version
G90 ; use absolute coordinates
M83 ; extruder relative mode
M104 S230 ; set extruder temp
M140 S85 ; set bed temp
M190 S85 ; wait for bed temp
M109 S230 ; wait for extruder temp
G28 W ; home all without mesh bed level
G80 ; mesh bed leveling
G1 Z0.2 F720
G1 Y-3 F1000 ; go outside print area
G92 E0
G1 X60 E9 F1000 ; intro line
G1 X100 E12.5 F1000 ; intro line
G92 E0
M221 S95

; Don't change E values below. Excessive value can damage the printer.

M907 E538 ; set extruder motor current
G21 ; set units to millimeters
G90 ; use absolute coordinates
M83 ; use relative distances for extrusion
M900 K0.08 ; Filament gcode LA 1.5
M900 K45 ; Filament gcode LA 1.0
M107
;LAYER_CHANGE
;Z:0.2
;HEIGHT:0.2
;BEFORE_LAYER_CHANGE
G92 E0.0
;0.2


G1 E-1 F2100
G1 Z.2 F720
;AFTER_LAYER_CHANGE
;0.2
G1 Z.4
G1 X105.518 Y66.566 F10800
G1 Z.2 F720
G1 E1 F2100
M204 S800
;TYPE:Skirt/Brim
;WIDTH:0.42
G1 F1200
G1 X105.728 Y66.233 E.01236
G1 X106.962 Y64.609 E.06394
G1 X108.48 Y62.953 E.07043
G1 X109.989 Y61.582 E.06394
G1 X111.613 Y60.348 E.06394
G1 X113.337 Y59.26 E.06394
G1 X115.15 Y58.326 E.06394
G1 X117.038 Y57.554 E.06394
G1 X118.985 Y56.95 E.06394
G1 X120.978 Y56.517 E.06394
G1 X123.001 Y56.26 E.06394
G1 X124.831 Y56.18 E.05744
G1 X126.869 Y56.26 E.06394
G1 X128.892 Y56.517 E.06394
G1 X130.885 Y56.95 E.06394
G1 X133.027 Y57.625 E.07043
G1 X134.719 Y58.326 E.05744
G1 X136.532 Y59.26 E.06394
G1 X138.427 Y60.467 E.07043
G1 X140.039 Y61.715 E.06394
G1 X141.537 Y63.1 E.06394
G1 X142.908 Y64.609 E.06394
G1 X144.023 Y66.063 E.05744
G1 X145.126 Y67.778 E.06394
G1 X145.94 Y69.322 E.05475
G1 X146.935 Y71.658 E.07959
G1 X147.486 Y73.405 E.05744
G1 X147.937 Y75.394 E.06394
G1 X148.23 Y77.621 E.07043
G1 X150.2 Y129.659 E1.63277
G1 X150.094 Y131.86 E.06911
G1 X149.834 Y133.84 E.06261
G1 X149.383 Y135.916 E.0666
G1 X148.711 Y138.099 E.07161
G1 X147.876 Y140.139 E.06911
G1 X146.763 Y142.277 E.0756
G1 X145.571 Y144.131 E.06911
G1 X144.222 Y145.874 E.06911
G1 X142.726 Y147.493 E.06911
G1 X141.095 Y148.976 E.0691
G1 X139.256 Y150.365 E.07227
G1 X137.477 Y151.487 E.06593
G1 X135.706 Y152.409 E.06261
G1 X133.68 Y153.258 E.06889
G1 X131.575 Y153.932 E.06931
G1 X129.424 Y154.418 E.06913
G1 X127.24 Y154.715 E.06911
G1 X124.831 Y154.82 E.0756
G1 X122.836 Y154.733 E.06261
G1 X120.65 Y154.454 E.06911
G1 X118.496 Y153.986 E.06911
G1 X116.391 Y153.332 E.06911
G1 X114.351 Y152.497 E.06911
G1 X112.213 Y151.383 E.0756
G1 X110.359 Y150.191 E.06911
G1 X108.615 Y148.842 E.06911
G1 X106.997 Y147.347 E.06911
G1 X105.647 Y145.874 E.06261
G1 X104.299 Y144.131 E.06911
G1 X103.107 Y142.277 E.06911
G1 X102.081 Y140.326 E.06911
G1 X101.229 Y138.293 E.06911
G1 X100.558 Y136.194 E.06911
G1 X100.072 Y134.044 E.06911
G1 X99.775 Y131.86 E.06911
G1 X99.669 Y129.465 E.07517
G1 X101.64 Y77.621 E1.62671
G1 X101.933 Y75.394 E.07043
G1 X102.383 Y73.405 E.06394
G1 X103.005 Y71.463 E.06394
G1 X103.706 Y69.77 E.05744
G1 X104.64 Y67.957 E.06394
G1 X105.486 Y66.617 E.0497
M204 S1000
; printing object Membrane_Air_Horn_v18.stl id:0 copy 0
;WIPE_START
G1 F8640
G1 X105.728 Y66.233 E-.10487
G1 X106.962 Y64.609 E-.47086
G1 X108.057 Y63.414 E-.37428
;WIPE_END
G1 E-.05 F2100
G1 Z.4 F720
G1 X118.284 Y108.428 F10800
G1 Z.2 F720
G1 E1 F2100
M204 S800
;TYPE:Perimeter
;WIDTH:0.419999
G1 F1200
G1 X118.741 Y108.332 E.01463
G1 X119.601 Y108.099 E.02792
G1 X120.091 Y107.932 E.01625
G1 X120 Y108.421 E.0156
G1 X119.948 Y109.416 E.03122
G1 X119.948 Y120.335 E.34237
G1 X120.06 Y120.673 E.01115
G1 X120.293 Y120.856 E.0093
G1 X120.451 Y120.897 E.00513
G1 X120.743 Y120.852 E.00927
G1 X121.935 Y120.322 E.04089
G1 X123.92 Y119.9 E.06364
G1 X125.95 Y119.9 E.06364
G1 X127.935 Y120.322 E.06364
G1 X129.789 Y121.147 E.06364
G1 X131.431 Y122.34 E.06364
G1 X132.789 Y123.848 E.06364
G1 X133.804 Y125.606 E.06364
G1 X134.207 Y126.846 E.04089
G1 X134.469 Y127.586 E.0246
G1 X134.658 Y127.764 E.00813
G1 X144.867 Y133.657 E.36961
G1 X145.631 Y134.048 E.0269
G1 X146.116 Y134.245 E.01643
G1 X146.556 Y134.359 E.01426
G1 X146.411 Y134.803 E.01463
G1 X146.183 Y135.663 E.02792
G1 X146.082 Y136.171 E.01625
G1 X145.705 Y135.848 E.0156
G1 X144.869 Y135.306 E.03122
G1 X135.413 Y129.846 E.34237
G1 X135.064 Y129.774 E.01116
G1 X134.789 Y129.885 E.0093
G1 X134.674 Y130.001 E.00513
G1 X134.568 Y130.277 E.00927
G1 X134.431 Y131.574 E.04089
G1 X133.804 Y133.504 E.06364
G1 X132.789 Y135.262 E.06364
G1 X131.431 Y136.77 E.06364
G1 X129.789 Y137.963 E.06364
G1 X127.935 Y138.788 E.06364
G1 X125.95 Y139.21 E.06364
G1 X123.92 Y139.21 E.06364
G1 X122.644 Y138.939 E.04089
G1 X121.873 Y138.796 E.0246
G1 X121.625 Y138.871 E.00813
G1 X111.416 Y144.766 E.36961
G1 X110.696 Y145.232 E.02689
G1 X110.282 Y145.553 E.01643
G1 X109.963 Y145.878 E.01426
G1 X109.652 Y145.53 E.01463
G1 X109.021 Y144.903 E.02792
G1 X108.631 Y144.561 E.01625
G1 X109.1 Y144.396 E.0156
G1 X109.987 Y143.943 E.03122
G1 X119.444 Y138.484 E.34237
G1 X119.68 Y138.218 E.01116
G1 X119.722 Y137.924 E.0093
G1 X119.679 Y137.767 E.00513
G1 X119.493 Y137.536 E.00927
G1 X118.439 Y136.77 E.04089
G1 X117.08 Y135.262 E.06364
G1 X116.066 Y133.504 E.06364
G1 X115.438 Y131.574 E.06364
G1 X115.226 Y129.555 E.06364
G1 X115.438 Y127.536 E.06364
G1 X116.066 Y125.606 E.06364
G1 X117.08 Y123.848 E.06364
G1 X117.953 Y122.879 E.04089
G1 X118.463 Y122.283 E.0246
G1 X118.522 Y122.03 E.00814
G1 X118.514 Y109.753 E.38492
G1 X118.486 Y109.412 E.01075
G1 X118.406 Y108.866 E.01728
G1 X118.3 Y108.486 E.01237
M204 S1000
;WIPE_START
G1 F8640
G1 X118.741 Y108.332 E-.10772
G1 X119.601 Y108.099 E-.20564
G1 X120.091 Y107.932 E-.11963
G1 X120 Y108.421 E-.11489
G1 X119.948 Y109.416 E-.22989
G1 X119.948 Y110.162 E-.17223
;WIPE_END
G1 E-.05 F2100
G1 Z.4 F720
G1 X134.943 Y130.316 F10800
G1 Z.2 F720
G1 E1 F2100
M204 S800
;TYPE:External perimeter
G1 F1200
G1 X135.016 Y130.185 E.00471
G1 X135.195 Y130.159 E.00565
G1 X135.224 Y130.172 E.00103
G1 X144.681 Y135.633 E.34237
G1 X145.499 Y136.164 E.03059
G1 X145.929 Y136.538 E.01787
G1 X145.984 Y136.737 E.00645
G1 X145.667 Y137.607 E.02904
G1 X145.102 Y138.968 E.04621
G1 X144.205 Y140.69 E.06088
G1 X143.161 Y142.327 E.06088
G1 X141.979 Y143.867 E.06088
G1 X140.666 Y145.298 E.06088
G1 X139.234 Y146.609 E.06088
G1 X137.694 Y147.791 E.06088
G1 X136.056 Y148.833 E.06088
G1 X134.333 Y149.729 E.06088
G1 X132.539 Y150.471 E.06088
G1 X130.687 Y151.055 E.06088
G1 X128.791 Y151.474 E.06088
G1 X126.883 Y151.725 E.06036
G1 X124.943 Y151.811 E.06088
G1 X123.003 Y151.727 E.06088
G1 X121.078 Y151.474 E.06088
G1 X119.183 Y151.055 E.06088
M73 Q1 S50
G1 X117.315 Y150.466 E.06139
G1 X115.537 Y149.729 E.06036
M73 P1 R50
G1 X113.814 Y148.833 E.06088
G1 X112.176 Y147.791 E.06088
G1 X110.635 Y146.609 E.06088
;WIDTH:0.419792
G1 X110.306 Y146.307 E.01399
;WIDTH:0.419999
G1 X110.26 Y146.095 E.00682
G1 X110.736 Y145.661 E.02021
G1 X111.596 Y145.097 E.03225
G1 X121.813 Y139.198 E.36992
G1 X121.947 Y139.176 E.00424
G1 X123.88 Y139.587 E.06198
G1 X125.989 Y139.587 E.06612
G1 X128.052 Y139.149 E.06612
G1 X129.979 Y138.291 E.06612
G1 X131.685 Y137.052 E.06612
G1 X133.096 Y135.484 E.06612
G1 X134.15 Y133.658 E.06612
G1 X134.802 Y131.652 E.06612
G1 X134.936 Y130.376 E.04025
M204 S1000
G1 X134.855 Y130.194 F10800
;WIPE_START
G1 F8640
G1 X135.016 Y130.185 E-.04769
G1 X135.195 Y130.159 E-.04163
G1 X135.224 Y130.172 E-.00755
G1 X138.424 Y132.02 E-.85312
;WIPE_END
G1 E-.05 F2100
G1 Z.4 F720
G1 X119.272 Y137.841 F10800
G1 Z.2 F720
G1 E1 F2100
M204 S800
G1 F1200
G1 X119.348 Y137.971 E.00471
G1 X119.282 Y138.139 E.00565
G1 X119.255 Y138.157 E.00103
G1 X109.798 Y143.617 E.34237
G1 X108.929 Y144.06 E.0306
G1 X108.39 Y144.245 E.01787
G1 X108.191 Y144.193 E.00645
;WIDTH:0.41979
G1 X107.881 Y143.854 E.01439
;WIDTH:0.419925
G1 X106.699 Y142.314 E.06086
G1 X105.657 Y140.676 E.06086
G1 X104.768 Y138.968 E.06035
G1 X104.024 Y137.175 E.06086
G1 X103.435 Y135.307 E.06139
;WIDTH:0.421202
G1 X103.012 Y133.382 E.06199
;WIDTH:0.419928
G1 X102.763 Y131.487 E.05994
G1 X102.679 Y129.563 E.06035
;WIDTH:0.419927
G1 X102.764 Y127.607 E.06138
G1 X103.018 Y125.682 E.06087
G1 X103.439 Y123.787 E.06087
G1 X104.024 Y121.935 E.06087
G1 X104.768 Y120.142 E.06086
G1 X105.657 Y118.434 E.06035
G1 X106.699 Y116.796 E.06086
G1 X107.891 Y115.243 E.06138
G1 X109.203 Y113.812 E.06086
G1 X110.623 Y112.511 E.06035
G1 X112.163 Y111.329 E.06086
G1 X113.8 Y110.285 E.06086
G1 X115.537 Y109.381 E.06138
;WIDTH:0.420379
G1 X117.327 Y108.64 E.06082
G1 X117.77 Y108.505 E.01451
;WIDTH:0.419999
G1 X117.948 Y108.576 E.00603
G1 X118.086 Y109.206 E.02021
G1 X118.137 Y109.754 E.01725
G1 X118.145 Y122.03 E.38492
G1 X118.096 Y122.157 E.00424
G1 X116.774 Y123.626 E.06198
G1 X115.719 Y125.452 E.06612
G1 X115.068 Y127.458 E.06612
G1 X114.847 Y129.555 E.06612
G1 X115.068 Y131.652 E.06612
G1 X115.719 Y133.658 E.06612
G1 X116.774 Y135.484 E.06612
G1 X118.185 Y137.052 E.06612
G1 X119.223 Y137.806 E.04025
M204 S1000
G1 X119.421 Y137.826 F10800
;WIPE_START
G1 F8640
G1 X119.348 Y137.971 E-.04769
G1 X119.282 Y138.139 E-.04163
G1 X119.255 Y138.157 E-.00755
G1 X116.055 Y140.004 E-.85312
;WIPE_END
G1 E-.05 F2100
G1 Z.4 F720
G1 X107.927 Y144.46 F10800
G1 Z.2 F720
G1 E1 F2100
M204 S800
;WIDTH:0.41979
G1 F1200
G1 X107.582 Y144.084 E.016
;WIDTH:0.419928
G1 X106.381 Y142.516 E.0619
G1 X105.322 Y140.85 E.0619
G1 X104.433 Y139.142 E.06035
G1 X103.676 Y137.319 E.06189
G1 X103.067 Y135.388 E.06346
;WIDTH:0.421202
G1 X102.638 Y133.432 E.06301
;WIDTH:0.419927
G1 X102.386 Y131.503 E.06097
G1 X102.302 Y129.58 E.06035
;WIDTH:0.420107
G1 X102.301 Y129.555 E.00077
G1 X102.302 Y129.53 E.00077
;WIDTH:0.419928
G1 X102.386 Y127.607 E.06035
G1 X102.642 Y125.649 E.0619
G1 X103.08 Y123.673 E.06344
G1 X103.676 Y121.791 E.0619
G1 X104.433 Y119.968 E.06189
G1 X105.322 Y118.26 E.06035
G1 X106.381 Y116.594 E.0619
G1 X107.613 Y114.988 E.06344
G1 X108.949 Y113.534 E.06189
G1 X110.368 Y112.233 E.06035
G1 X111.933 Y111.03 E.0619
G1 X113.597 Y109.967 E.06189
G1 X115.392 Y109.033 E.06344
;WIDTH:0.420379
G1 X117.231 Y108.275 E.06241
;WIDTH:0.419595
G1 X117.714 Y108.136 E.01574
;WIDTH:0.419999
G1 X118.41 Y108.017 E.02216
G1 X118.908 Y107.896 E.01604
G1 X119.606 Y107.706 E.0227
G1 X120.53 Y107.373 E.03081
;WIDTH:0.419792
G1 X121.029 Y107.262 E.016
;WIDTH:0.419925
G1 X122.938 Y107.011 E.06035
G1 X124.881 Y106.924 E.06097
;WIDTH:0.421205
G1 X126.882 Y107.006 E.06301
;WIDTH:0.419925
G1 X128.841 Y107.262 E.06191
G1 X130.769 Y107.687 E.06189
G1 X132.699 Y108.296 E.06344
G1 X134.522 Y109.053 E.06189
G1 X136.272 Y109.967 E.0619
G1 X137.937 Y111.03 E.06189
G1 X139.464 Y112.202 E.06035
G1 X140.921 Y113.534 E.0619
G1 X142.288 Y115.026 E.06344
G1 X143.488 Y116.594 E.06189
G1 X144.548 Y118.26 E.06189
G1 X145.436 Y119.968 E.06035
G1 X146.194 Y121.791 E.06189
G1 X146.79 Y123.673 E.06189
G1 X147.228 Y125.649 E.06344
G1 X147.483 Y127.607 E.0619
G1 X147.567 Y129.53 E.06035
G1 X147.483 Y131.503 E.06189
G1 X147.228 Y133.461 E.0619
;WIDTH:0.419789
G1 X147.219 Y133.511 E.00159
;WIDTH:0.41965
G1 X147.07 Y134.071 E.01816
;WIDTH:0.419999
G1 X146.85 Y134.674 E.02013
G1 X146.521 Y135.865 E.03874
G1 X146.358 Y136.78 E.02914
;WIDTH:0.417436
G1 X146.193 Y137.275 E.01626
;WIDTH:0.419924
G1 X146.017 Y137.747 E.0158
G1 X145.457 Y139.098 E.04582
G1 X144.523 Y140.893 E.06344
G1 X143.46 Y142.557 E.06189
G1 X142.288 Y144.084 E.06035
G1 X140.921 Y145.576 E.06344
G1 X139.502 Y146.877 E.06035
G1 X137.937 Y148.08 E.06189
G1 X136.272 Y149.143 E.06189
G1 X134.477 Y150.077 E.06344
G1 X132.699 Y150.814 E.06035
G1 X130.816 Y151.41 E.0619
G1 X128.841 Y151.848 E.06344
G1 X126.932 Y152.099 E.06035
G1 X124.959 Y152.188 E.06189
G1 X122.938 Y152.099 E.06344
G1 X120.98 Y151.839 E.0619
G1 X119.101 Y151.423 E.06035
M73 P1 R49
G1 X117.217 Y150.831 E.0619
G1 X115.348 Y150.057 E.06344
G1 X113.597 Y149.143 E.06189
G1 X111.974 Y148.109 E.06035
G1 X110.406 Y146.908 E.0619
;WIDTH:0.419792
G1 X110.367 Y146.875 E.00159
;WIDTH:0.419651
G1 X109.996 Y146.518 E.01614
;WIDTH:0.419999
G1 X109.544 Y145.974 E.02216
G1 X109.192 Y145.604 E.01604
G1 X108.678 Y145.094 E.0227
G1 X107.973 Y144.499 E.02892
M204 S1000
G1 X108.035 Y144.075 F10800
;WIPE_START
G1 F8640
G1 X107.582 Y144.084 E-.13167
G1 X106.381 Y142.516 E-.45592
G1 X105.539 Y141.192 E-.36241
;WIPE_END
G1 E-.05 F2100
G1 Z.4 F720
G1 X120.44 Y120.509 F10800
G1 Z.2 F720
G1 E1 F2100
M204 S800
G1 F1200
G1 X120.328 Y120.368 E.00565
G1 X120.325 Y120.335 E.00103
G1 X120.325 Y109.416 E.34237
G1 X120.376 Y108.441 E.0306
G1 X120.486 Y107.882 E.01787
G1 X120.63 Y107.735 E.00645
;WIDTH:0.419789
G1 X121.078 Y107.636 E.01439
;WIDTH:0.419925
G1 X122.987 Y107.385 E.06035
G1 X124.897 Y107.3 E.05994
;WIDTH:0.421205
G1 X126.866 Y107.383 E.06199
;WIDTH:0.419929
G1 X128.791 Y107.636 E.06087
G1 X130.687 Y108.055 E.06087
G1 X132.555 Y108.644 E.06138
G1 X134.348 Y109.388 E.06086
G1 X136.07 Y110.285 E.06087
G1 X137.707 Y111.329 E.06087
G1 X139.234 Y112.501 E.06035
G1 X140.666 Y113.812 E.06087
G1 X141.989 Y115.255 E.06138
G1 X143.17 Y116.796 E.06087
G1 X144.213 Y118.434 E.06087
G1 X145.109 Y120.157 E.06087
G1 X145.846 Y121.935 E.06035
G1 X146.43 Y123.787 E.06087
G1 X146.854 Y125.698 E.06138
G1 X147.107 Y127.623 E.06087
G1 X147.191 Y129.547 E.06035
G1 X147.107 Y131.487 E.06087
G1 X146.854 Y133.412 E.06087
;WIDTH:0.419788
G1 X146.735 Y133.905 E.0159
;WIDTH:0.419999
G1 X146.596 Y133.994 E.00516
G1 X145.982 Y133.798 E.02021
G1 X145.055 Y133.331 E.03255
G1 X134.846 Y127.437 E.36961
G1 X134.761 Y127.332 E.00424
G1 X134.15 Y125.452 E.06198
G1 X133.096 Y123.626 E.06612
G1 X131.685 Y122.058 E.06612
G1 X129.979 Y120.819 E.06612
G1 X128.052 Y119.961 E.06612
G1 X125.989 Y119.523 E.06612
G1 X123.88 Y119.523 E.06612
G1 X121.818 Y119.961 E.06612
G1 X120.59 Y120.508 E.04213
G1 X120.5 Y120.508 E.00283
M204 S1000
;WIPE_START
G1 F8640
G1 X120.328 Y120.368 E-.05129
G1 X120.325 Y120.335 E-.00758
G1 X120.325 Y116.476 E-.89113
;WIPE_END
G1 E-.05 F2100
G1 Z.4 F720
G1 X145.036 Y133.87 F10800
G1 Z.2 F720
G1 E1 F2100
M204 S800
;TYPE:Solid infill
;WIDTH:0.42222
G1 F1200
G1 X146.088 Y134.922 E.04692
G1 X145.978 Y135.348 E.01389
G1 X144.267 Y133.638 E.0763
G1 X142.998 Y132.905 E.04621
G1 X145.419 Y135.326 E.10799
G1 X145.013 Y135.062 E.01528
G1 X144.082 Y134.525 E.0339
G1 X141.729 Y132.172 E.10493
G1 X140.46 Y131.44 E.04621
G1 X142.812 Y133.792 E.10491
G1 X141.543 Y133.059 E.04623
G1 X139.191 Y130.707 E.1049
G1 X137.922 Y129.975 E.04621
G1 X140.274 Y132.326 E.10488
G1 X139.004 Y131.593 E.04623
G1 X136.19 Y128.779 E.12554
M204 S1000
;WIPE_START
G1 F8640
G1 X139.004 Y131.593 E-.91909
G1 X139.12 Y131.66 E-.03091
;WIPE_END
G1 E-.05 F2100
G1 Z.4 F720
G1 X133.104 Y124.62 F10800
G1 Z.2 F720
G1 E1 F2100
M204 S800
G1 F1200
G1 X130.49 Y122.006 E.1166
G1 X129.647 Y121.393 E.03286
G1 X129.096 Y121.148 E.01904
G1 X133.373 Y125.426 E.1908
G1 X133.544 Y125.722 E.01079
G1 X133.743 Y126.331 E.02021
G1 X128.129 Y120.717 E.2504
G1 X127.847 Y120.592 E.00972
G1 X127.364 Y120.489 E.01557
G1 X134.001 Y127.126 E.29602
G1 X134.145 Y127.57 E.01472
G1 X134.232 Y127.741 E.00604
G1 X134.325 Y127.859 E.00474
G1 X134.511 Y128.005 E.00744
G1 X135.384 Y128.51 E.03182
G1 X137.735 Y130.86 E.10485
G1 X136.466 Y130.127 E.04623
G1 X126.683 Y120.345 E.43634
G1 X126.002 Y120.2 E.02196
G1 X135.327 Y129.525 E.41594
G1 X135.03 Y129.49 E.00945
M73 Q1 S49
G1 X134.834 Y129.569 E.00664
G1 X125.448 Y120.182 E.41866
G1 X124.912 Y120.182 E.01692
G1 X134.503 Y129.774 E.42782
G1 X134.368 Y129.962 E.0073
G1 X134.32 Y130.127 E.00542
G1 X124.375 Y120.182 E.44355
G1 X123.95 Y120.182 E.01342
G1 X123.858 Y120.202 E.00295
G1 X134.25 Y130.594 E.4635
G1 X134.199 Y131.079 E.01539
G1 X123.416 Y120.296 E.48095
G1 X122.973 Y120.39 E.01426
G1 X134.14 Y131.556 E.49804
