; generated by PrusaSlicer 2.5.0+linux-x64-GTK3 on 2023-04-21 at 16:13:13 UTC

; 

; external perimeters extrusion width = 0.60mm
; perimeters extrusion width = 0.50mm
; infill extrusion width = 0.50mm
; solid infill extrusion width = 0.50mm
; top infill extrusion width = 0.45mm
; first layer extrusion width = 0.42mm

; external perimeters extrusion width = 0.60mm
; perimeters extrusion width = 0.50mm
; infill extrusion width = 0.50mm
; solid infill extrusion width = 0.50mm
; top infill extrusion width = 0.45mm
; first layer extrusion width = 0.42mm

M73 P0 R50
M73 Q0 S50
M107
;TYPE:Custom
M862.3 P "MK3S" ; printer model check
M862.1 P0.4 ; nozzle diameter check
M115 U3.10.0 ; tell printer latest fw version
G90 ; use absolute coordinates
M83 ; extruder relative mode
M104 S230 ; set extruder temp
M140 S85 ; set bed temp
M190 S85 ; wait for bed temp
M109 S230 ; wait for extruder temp
G28 W ; home all without mesh bed level
G80 ; mesh bed leveling
G1 Z0.2 F720
G1 Y-3 F1000 ; go outside print area
G92 E0
G1 X60 E9 F1000 ; intro line
G1 X100 E12.5 F1000 ; intro line
G92 E0
M221 S95

; Don't change E values below. Excessive value can damage the printer.

M907 E538 ; set extruder motor current
G21 ; set units to millimeters
G90 ; use absolute coordinates
M83 ; use relative distances for extrusion
M900 K0.08 ; Filament gcode LA 1.5
M900 K45 ; Filament gcode LA 1.0
M107
;LAYER_CHANGE
;Z:0.2
;HEIGHT:0.2
;BEFORE_LAYER_CHANGE
G92 E0.0
;0.2


G1 E-1 F2100
G1 Z.2 F720
;AFTER_LAYER_CHANGE
;0.2
G1 Z.4
G1 X92.015 Y70.606 F10800
G1 Z.2 F720
G1 E1 F2100
M204 S800
;TYPE:Skirt/Brim
;WIDTH:0.42
G1 F1200
G1 X92.13 Y70.456 E.00591
G1 X93.515 Y68.959 E.06394
G1 X94.865 Y67.721 E.05744
G1 X96.647 Y66.354 E.07043
G1 X98.192 Y65.369 E.05744
G1 X99.997 Y64.42 E.06394
G1 X102.072 Y63.56 E.07043
G1 X104.02 Y62.955 E.06394
G1 X105.809 Y62.559 E.05744
G1 X108.036 Y62.266 E.07043
G1 X109.866 Y62.186 E.05744
G1 X111.904 Y62.266 E.06394
G1 X113.927 Y62.523 E.06394
G1 X115.919 Y62.955 E.06394
G1 X117.867 Y63.56 E.06394
G1 X119.754 Y64.332 E.06394
G1 X121.747 Y65.369 E.07043
G1 X123.462 Y66.473 E.06394
G1 X125.074 Y67.721 E.06394
G1 X126.572 Y69.105 E.06394
G1 X127.892 Y70.551 E.06138
G1 X158.244 Y107.407 E1.49702
G1 X159.508 Y109.052 E.06504
G1 X160.697 Y110.902 E.06896
G1 X161.809 Y113.037 E.07548
G1 X162.642 Y115.073 E.06897
G1 X163.321 Y117.29 E.0727
G1 X163.762 Y119.323 E.06523
G1 X164.022 Y121.298 E.06247
G1 X164.127 Y123.496 E.06897
G1 X164.04 Y125.694 E.06897
G1 X163.762 Y127.876 E.06897
G1 X163.295 Y130.025 E.06897
G1 X162.575 Y132.309 E.07506
G1 X161.721 Y134.35 E.06937
G1 X160.697 Y136.297 E.06897
G1 X159.424 Y138.256 E.07325
G1 X158.161 Y139.887 E.06468
G1 X156.815 Y141.356 E.06248
G1 X155.199 Y142.848 E.06897
G1 X153.46 Y144.195 E.06897
G1 X151.43 Y145.488 E.07547
G1 X149.475 Y146.496 E.06897
G1 X147.634 Y147.258 E.06247
G1 X145.539 Y147.928 E.06897
G1 X143.175 Y148.451 E.0759
G1 X141.007 Y148.727 E.06853
G1 X138.809 Y148.814 E.06897
G1 X136.818 Y148.727 E.06247
G1 X134.636 Y148.449 E.06897
G1 X132.239 Y147.913 E.07702
G1 X130.191 Y147.258 E.0674
G1 X128.162 Y146.408 E.06898
G1 X126.395 Y145.488 E.06248
G1 X124.535 Y144.314 E.06897
G1 X122.625 Y142.848 E.07547
G1 X121.156 Y141.502 E.06247
G1 X119.663 Y139.887 E.06897
G1 X118.257 Y138.065 E.07214
G1 X90.822 Y98.971 E1.49749
G1 X89.675 Y97.158 E.06727
G1 X88.741 Y95.345 E.06394
G1 X88.04 Y93.653 E.05744
G1 X87.418 Y91.711 E.06394
G1 X86.932 Y89.518 E.07043
G1 X86.675 Y87.495 E.06394
G1 X86.595 Y85.664 E.05744
G1 X86.675 Y83.627 E.06394
G1 X86.968 Y81.4 E.07043
G1 X87.365 Y79.611 E.05744
G1 X87.969 Y77.663 E.06394
G1 X88.829 Y75.588 E.07043
G1 X89.778 Y73.783 E.06394
G1 X90.763 Y72.238 E.05744
G1 X91.979 Y70.653 E.06264
M204 S1000
; printing object Membrane_Air_Horn_v19-1_28D_Cologne.stl id:0 copy 0
;WIPE_START
G1 F8640
G1 X92.13 Y70.456 E-.0574
G1 X93.515 Y68.959 E-.47086
G1 X94.861 Y67.725 E-.42174
;WIPE_END
G1 E-.05 F2100
G1 Z.4 F720
G1 X133.526 Y131.649 F10800
G1 Z.2 F720
G1 E1 F2100
M204 S800
;TYPE:Perimeter
;WIDTH:0.419999
G1 F1200
G1 X133.471 Y131.581 E.00274
G1 X132.416 Y130.814 E.04089
G1 X131.058 Y129.306 E.06364
G1 X130.043 Y127.548 E.06364
G1 X129.416 Y125.618 E.06364
G1 X129.204 Y123.599 E.06364
G1 X129.416 Y121.581 E.06364
G1 X130.043 Y119.651 E.06364
G1 X131.058 Y117.893 E.06364
G1 X131.931 Y116.924 E.04089
G1 X132.44 Y116.327 E.0246
G1 X132.499 Y116.074 E.00814
G1 X132.49 Y103.798 E.38493
G1 X132.383 Y103 E.02523
G1 X132.245 Y102.511 E.01593
G1 X132.731 Y102.419 E.01552
G1 X133.634 Y102.174 E.02933
G1 X134.085 Y102.009 E.01508
G1 X133.986 Y102.46 E.01449
G1 X133.926 Y103.46 E.0314
G1 X133.925 Y114.38 E.34237
G1 X134.037 Y114.717 E.01115
G1 X134.27 Y114.9 E.0093
G1 X134.429 Y114.942 E.00513
G1 X134.721 Y114.896 E.00927
G1 X135.912 Y114.366 E.04089
G1 X137.898 Y113.944 E.06364
G1 X139.927 Y113.944 E.06364
G1 X141.912 Y114.366 E.06364
G1 X143.767 Y115.191 E.06364
G1 X145.409 Y116.384 E.06364
G1 X146.767 Y117.893 E.06364
G1 X147.782 Y119.651 E.06364
G1 X148.185 Y120.891 E.04089
G1 X148.446 Y121.63 E.0246
G1 X148.635 Y121.808 E.00813
G1 X158.845 Y127.702 E.36961
G1 X159.545 Y128.053 E.02456
M73 P0 R49
G1 X160.016 Y128.245 E.01597
G1 X160.509 Y128.369 E.01593
G1 X160.346 Y128.836 E.01552
G1 X160.107 Y129.741 E.02933
G1 X160.023 Y130.214 E.01508
G1 X159.682 Y129.902 E.01449
G1 X158.847 Y129.351 E.0314
G1 X149.39 Y123.89 E.34237
G1 X149.042 Y123.818 E.01116
G1 X148.767 Y123.929 E.0093
G1 X148.652 Y124.045 E.00513
G1 X148.545 Y124.321 E.00927
G1 X148.409 Y125.618 E.04089
G1 X147.782 Y127.548 E.06364
G1 X146.767 Y129.306 E.06364
G1 X145.409 Y130.814 E.06364
G1 X143.767 Y132.007 E.06364
G1 X141.912 Y132.833 E.06364
G1 X139.927 Y133.255 E.06364
G1 X137.898 Y133.255 E.06364
G1 X136.622 Y132.984 E.04089
G1 X135.851 Y132.841 E.0246
G1 X135.602 Y132.915 E.00813
G1 X125.394 Y138.81 E.36961
G1 X124.739 Y139.241 E.02457
G1 X124.337 Y139.553 E.01596
G1 X123.984 Y139.918 E.01593
G1 X123.66 Y139.543 E.01552
G1 X122.996 Y138.884 E.02933
G1 X122.628 Y138.575 E.01508
G1 X123.069 Y138.435 E.01449
G1 X123.964 Y137.987 E.0314
G1 X133.421 Y132.528 E.34238
G1 X133.658 Y132.262 E.01116
G1 X133.7 Y131.969 E.0093
G1 X133.656 Y131.811 E.00513
G1 X133.563 Y131.695 E.00465
M204 S1000
;WIPE_START
G1 F8640
G1 X133.471 Y131.581 E-.03401
G1 X132.416 Y130.814 E-.3011
G1 X131.058 Y129.306 E-.46865
G1 X130.741 Y128.757 E-.14624
;WIPE_END
G1 E-.05 F2100
G1 Z.4 F720
G1 X135.924 Y133.221 F10800
G1 Z.2 F720
G1 E1 F2100
M204 S800
;TYPE:External perimeter
G1 F1200
G1 X137.858 Y133.632 E.06198
G1 X139.967 Y133.632 E.06612
G1 X142.03 Y133.193 E.06612
G1 X143.956 Y132.336 E.06612
G1 X145.662 Y131.096 E.06612
G1 X147.073 Y129.529 E.06612
G1 X148.128 Y127.702 E.06612
G1 X148.78 Y125.697 E.06612
G1 X148.92 Y124.36 E.04213
G1 X148.994 Y124.23 E.00471
G1 X149.172 Y124.203 E.00565
G1 X158.658 Y129.677 E.34339
G1 X159.474 Y130.217 E.03068
G1 X159.882 Y130.6 E.01754
G1 X159.931 Y130.793 E.00625
G1 X159.618 Y131.649 E.02856
G1 X159.064 Y132.987 E.04543
G1 X158.161 Y134.722 E.06132
G1 X157.128 Y136.344 E.06029
G1 X155.947 Y137.883 E.06081
G1 X154.626 Y139.325 E.06132
G1 X153.208 Y140.624 E.06029
G1 X151.67 Y141.805 E.06081
M73 Q1 S50
G1 X150.035 Y142.848 E.06081
G1 X148.3 Y143.751 E.06132
G1 X146.523 Y144.487 E.06029
M73 P1 R49
G1 X144.674 Y145.071 E.06081
G1 X142.765 Y145.494 E.06132
G1 X140.858 Y145.745 E.06029
G1 X138.921 Y145.83 E.06081
G1 X136.967 Y145.745 E.06132
G1 X135.044 Y145.491 E.06081
G1 X133.151 Y145.071 E.06081
G1 X131.317 Y144.492 E.06029
G1 X129.525 Y143.751 E.06081
G1 X127.79 Y142.848 E.06132
G1 X126.168 Y141.815 E.06029
G1 X124.629 Y140.634 E.06081
;WIDTH:0.419804
G1 X124.326 Y140.357 E.01286
;WIDTH:0.419999
G1 X124.284 Y140.135 E.00708
G1 X124.73 Y139.703 E.01948
G1 X125.582 Y139.137 E.03208
G1 X135.791 Y133.242 E.36961
G1 X135.865 Y133.23 E.00236
M204 S1000
G1 X136.113 Y132.868 F10800
;WIPE_START
G1 F8640
G1 X137.858 Y133.632 E-.46941
G1 X139.939 Y133.632 E-.48059
;WIPE_END
G1 E-.05 F2100
G1 Z.4 F720
G1 X133.326 Y132.015 F10800
G1 Z.2 F720
G1 E1 F2100
M204 S800
G1 F1200
G1 X133.26 Y132.183 E.00565
G1 X133.233 Y132.202 E.00103
G1 X123.776 Y137.661 E.34238
G1 X122.9 Y138.098 E.03068
;WIDTH:0.420135
G1 X122.365 Y138.259 E.01755
G1 X122.173 Y138.206 E.00626
;WIDTH:0.419802
G1 X121.877 Y137.883 E.01371
;WIDTH:0.419929
G1 X120.697 Y136.344 E.0608
G1 X119.656 Y134.708 E.0608
G1 X118.768 Y133.002 E.06028
G1 X118.025 Y131.211 E.0608
G1 X117.437 Y129.345 E.06132
;WIDTH:0.421158
G1 X117.014 Y127.424 E.06188
;WIDTH:0.419932
G1 X116.765 Y125.529 E.05991
G1 X116.681 Y123.608 E.06028
G1 X116.765 Y121.67 E.0608
G1 X117.018 Y119.747 E.0608
G1 X117.441 Y117.838 E.06131
G1 X118.025 Y115.988 E.0608
G1 X118.768 Y114.197 E.0608
G1 X119.656 Y112.491 E.06028
G1 X120.697 Y110.855 E.0608
G1 X121.877 Y109.316 E.0608
G1 X123.187 Y107.886 E.0608
M73 Q1 S49
G1 X124.629 Y106.564 E.06131
G1 X126.154 Y105.394 E.06028
G1 X127.79 Y104.351 E.0608
G1 X129.525 Y103.448 E.06132
;WIDTH:0.42031
G1 X131.312 Y102.708 E.06071
G1 X131.724 Y102.582 E.01352
;WIDTH:0.419999
G1 X131.906 Y102.663 E.00625
G1 X132.058 Y103.265 E.01948
G1 X132.113 Y103.798 E.01678
G1 X132.122 Y116.075 E.38493
G1 X132.074 Y116.201 E.00424
G1 X130.751 Y117.67 E.06198
G1 X129.697 Y119.496 E.06612
G1 X129.045 Y121.502 E.06612
G1 X128.825 Y123.599 E.06612
G1 X129.045 Y125.697 E.06612
G1 X129.697 Y127.702 E.06612
G1 X130.751 Y129.529 E.06612
G1 X132.162 Y131.096 E.06612
G1 X133.249 Y131.886 E.04213
G1 X133.295 Y131.963 E.00283
M204 S1000
G1 X133.486 Y132.097 F10800
;WIPE_START
G1 F8640
G1 X133.26 Y132.183 E-.05133
G1 X133.233 Y132.202 E-.00755
G1 X129.89 Y134.131 E-.89112
;WIPE_END
G1 E-.05 F2100
G1 Z.4 F720
G1 X121.924 Y138.488 F10800
G1 Z.2 F720
G1 E1 F2100
M204 S800
;WIDTH:0.419803
G1 F1200
G1 X121.578 Y138.112 E.01599
;WIDTH:0.41993
G1 X120.379 Y136.546 E.06183
G1 X119.321 Y134.882 E.06183
G1 X118.433 Y133.176 E.06028
G1 X117.66 Y131.308 E.06337
G1 X117.069 Y129.426 E.06184
;WIDTH:0.421158
G1 X116.64 Y127.473 E.0629
;WIDTH:0.419932
G1 X116.389 Y125.545 E.06094
G1 X116.305 Y123.624 E.06028
;WIDTH:0.420111
G1 X116.304 Y123.599 E.00077
G1 X116.305 Y123.575 E.00077
;WIDTH:0.419931
G1 X116.393 Y121.604 E.06183
G1 X116.644 Y119.698 E.06028
G1 X117.069 Y117.772 E.06183
G1 X117.66 Y115.89 E.06183
G1 X118.433 Y114.023 E.06337
G1 X119.321 Y112.317 E.06028
G1 X120.379 Y110.652 E.06183
G1 X121.578 Y109.086 E.06183
G1 X122.909 Y107.631 E.06183
G1 X124.399 Y106.265 E.06337
G1 X125.965 Y105.066 E.06183
G1 X127.587 Y104.033 E.06028
G1 X129.38 Y103.1 E.06338
;WIDTH:0.420316
G1 X131.168 Y102.36 E.06071
G1 X131.674 Y102.21 E.01656
;WIDTH:0.419999
G1 X132.335 Y102.111 E.02094
G1 X132.885 Y101.986 E.01769
G1 X133.611 Y101.787 E.02362
G1 X134.513 Y101.442 E.03025
;WIDTH:0.419899
G1 X135.011 Y101.331 E.016
G1 X136.917 Y101.08 E.06028
G1 X138.86 Y100.996 E.06094
;WIDTH:0.421197
G1 X140.858 Y101.076 E.06289
;WIDTH:0.419929
G1 X142.862 Y101.34 E.06339
G1 X144.787 Y101.769 E.06183
G1 X146.668 Y102.364 E.06183
G1 X148.489 Y103.12 E.06183
G1 X150.237 Y104.033 E.06183
G1 X151.9 Y105.095 E.06183
G1 X153.463 Y106.297 E.06183
G1 X154.881 Y107.596 E.06028
G1 X156.215 Y109.049 E.06183
G1 X157.417 Y110.612 E.06183
G1 X158.479 Y112.274 E.06183
G1 X159.391 Y114.023 E.06183
G1 X160.148 Y115.844 E.06183
G1 X160.756 Y117.772 E.06339
;WIDTH:0.421158
G1 X161.184 Y119.726 E.0629
;WIDTH:0.419928
G1 X161.436 Y121.654 E.06094
G1 X161.52 Y123.624 E.06183
G1 X161.436 Y125.545 E.06028
G1 X161.18 Y127.501 E.06183
;WIDTH:0.419802
G1 X161.171 Y127.551 E.00159
;WIDTH:0.420903
G1 X161.029 Y128.086 E.01739
G1 X160.811 Y128.647 E.01894
;WIDTH:0.419999
G1 X160.643 Y129.186 E.01769
G1 X160.453 Y129.915 E.02362
G1 X160.308 Y130.826 E.02893
;WIDTH:0.418162
G1 X160.147 Y131.311 E.01594
;WIDTH:0.419999
G1 X159.968 Y131.789 E.016
G1 X159.391 Y133.176 E.0471
G1 X158.503 Y134.882 E.06029
G1 X157.445 Y136.546 E.06184
G1 X156.215 Y138.15 E.06338
G1 X154.881 Y139.603 E.06184
G1 X153.463 Y140.902 E.06029
G1 X151.859 Y142.133 E.06338
G1 X150.195 Y143.19 E.06184
G1 X148.489 Y144.078 E.06029
G1 X146.621 Y144.852 E.06338
G1 X144.74 Y145.443 E.06184
G1 X142.862 Y145.859 E.06029
G1 X140.858 Y146.123 E.06338
G1 X138.937 Y146.207 E.06029
G1 X136.967 Y146.123 E.06184
G1 X134.962 Y145.859 E.06338
G1 X133.085 Y145.443 E.06029
G1 X131.203 Y144.852 E.06184
G1 X129.336 Y144.078 E.06338
G1 X127.63 Y143.19 E.06029
G1 X125.965 Y142.133 E.06184
G1 X124.374 Y140.913 E.06286
G1 X124.008 Y140.562 E.0159
G1 X123.592 Y140.04 E.02094
G1 X123.209 Y139.626 E.01769
G1 X122.672 Y139.097 E.02362
G1 X121.97 Y138.526 E.02837
M204 S1000
G1 X122.03 Y138.103 F10800
;WIPE_START
G1 F8640
G1 X121.578 Y138.112 E-.13157
G1 X120.379 Y136.546 E-.45541
G1 X119.536 Y135.219 E-.36302
;WIPE_END
G1 E-.05 F2100
G1 Z.4 F720
G1 X134.568 Y114.552 F10800
G1 Z.2 F720
G1 E1 F2100
M204 S800
G1 F1200
G1 X134.417 Y114.553 E.00471
G1 X134.305 Y114.412 E.00565
G1 X134.302 Y114.38 E.00103
G1 X134.303 Y103.46 E.34237
G1 X134.362 Y102.483 E.03068
;WIDTH:0.420135
G1 X134.49 Y101.939 E.01755
G1 X134.633 Y101.799 E.00626
;WIDTH:0.419803
G1 X135.06 Y101.705 E.01371
;WIDTH:0.419929
G1 X136.967 Y101.454 E.06028
G1 X138.876 Y101.371 E.05991
;WIDTH:0.421197
G1 X140.841 Y101.452 E.06188
;WIDTH:0.419932
G1 X142.781 Y101.708 E.06132
G1 X144.674 Y102.128 E.0608
G1 X146.523 Y102.712 E.0608
G1 X148.3 Y103.448 E.06028
G1 X150.021 Y104.343 E.0608
G1 X151.657 Y105.384 E.0608
G1 X153.196 Y106.564 E.0608
G1 X154.626 Y107.874 E.0608
G1 X155.937 Y109.303 E.0608
G1 X157.118 Y110.842 E.0608
G1 X158.161 Y112.477 E.0608
G1 X159.057 Y114.197 E.0608
G1 X159.8 Y115.988 E.0608
G1 X160.388 Y117.854 E.06132
;WIDTH:0.421158
G1 X160.811 Y119.775 E.06188
;WIDTH:0.419931
G1 X161.059 Y121.67 E.05991
G1 X161.143 Y123.608 E.0608
G1 X161.059 Y125.529 E.06028
G1 X160.807 Y127.452 E.0608
;WIDTH:0.420903
G1 X160.694 Y127.913 E.01491
G1 X160.547 Y128 E.00539
;WIDTH:0.419999
G1 X159.949 Y127.83 E.01948
G1 X159.033 Y127.375 E.03208
G1 X148.824 Y121.481 E.36961
G1 X148.739 Y121.376 E.00424
G1 X148.128 Y119.496 E.06198
G1 X147.073 Y117.67 E.06612
G1 X145.662 Y116.103 E.06612
G1 X143.956 Y114.863 E.06612
G1 X142.03 Y114.005 E.06612
G1 X139.967 Y113.567 E.06612
G1 X137.858 Y113.567 E.06612
G1 X135.795 Y114.005 E.06612
G1 X134.622 Y114.527 E.04025
M204 S1000
G1 X134.506 Y114.689 F10800
;WIPE_START
G1 F8640
G1 X134.417 Y114.553 E-.04772
G1 X134.305 Y114.412 E-.04157
G1 X134.302 Y114.38 E-.00759
G1 X134.303 Y110.685 E-.85312
;WIPE_END
G1 E-.05 F2100
G1 Z.4 F720
G1 X159.049 Y127.93 F10800
G1 Z.2 F720
G1 E1 F2100
M204 S800
;TYPE:Solid infill
;WIDTH:0.421975
G1 F1200
G1 X160.033 Y128.914 E.04387
G1 X159.922 Y129.339 E.01384
G1 X158.292 Y127.709 E.07263
G1 X157.024 Y126.977 E.04615
G1 X159.487 Y129.44 E.10977
G1 X158.991 Y129.107 E.01882
G1 X158.109 Y128.598 E.0321
G1 X155.756 Y126.245 E.10488
G1 X154.488 Y125.513 E.04615
G1 X156.84 Y127.866 E.10486
G1 X155.572 Y127.133 E.04617
G1 X153.22 Y124.781 E.10484
G1 X151.952 Y124.049 E.04615
G1 X154.303 Y126.401 E.10482
G1 X153.035 Y125.668 E.04617
G1 X150.22 Y122.853 E.12546
M204 S1000
;WIPE_START
G1 F8640
G1 X153.035 Y125.668 E-.91912
G1 X153.151 Y125.735 E-.03088
;WIPE_END
G1 E-.05 F2100
G1 Z.4 F720
G1 X147.052 Y118.613 F10800
G1 Z.2 F720
G1 E1 F2100
M204 S800
G1 F1200
G1 X144.546 Y116.108 E.11169
G1 X143.624 Y115.438 E.03592
G1 X143.113 Y115.21 E.01766
G1 X147.321 Y119.418 E.18758
G1 X147.522 Y119.766 E.01267
G1 X147.709 Y120.343 E.0191
G1 X142.146 Y114.78 E.24796
G1 X141.825 Y114.636 E.0111
G1 X141.37 Y114.54 E.01463
G1 X147.968 Y121.137 E.29406
G1 X148.123 Y121.615 E.01583
G1 X148.209 Y121.786 E.00604
G1 X148.303 Y121.903 E.00474
G1 X148.488 Y122.049 E.00743
G1 X149.415 Y122.585 E.03375
G1 X151.766 Y124.936 E.10478
G1 X150.498 Y124.203 E.04617
G1 X140.69 Y114.395 E.43718
G1 X140.009 Y114.25 E.02194
G1 X149.331 Y123.573 E.41553
G1 X149.007 Y123.535 E.01028
G1 X148.829 Y123.606 E.00606
G1 X139.449 Y114.227 E.41808
G1 X138.913 Y114.227 E.0169
G1 X148.493 Y123.807 E.42701
G1 X148.425 Y123.875 E.00305
G1 X148.345 Y124.006 E.00483
G1 X148.303 Y124.152 E.0048
G1 X138.377 Y114.227 E.44243
