; generated by PrusaSlicer 2.5.0+linux-x64-GTK3 on 2023-04-21 at 11:30:07 UTC

; 

; external perimeters extrusion width = 0.60mm
; perimeters extrusion width = 0.50mm
; infill extrusion width = 0.50mm
; solid infill extrusion width = 0.50mm
; top infill extrusion width = 0.45mm
; first layer extrusion width = 0.42mm

; external perimeters extrusion width = 0.60mm
; perimeters extrusion width = 0.50mm
; infill extrusion width = 0.50mm
; solid infill extrusion width = 0.50mm
; top infill extrusion width = 0.45mm
; first layer extrusion width = 0.42mm

M73 P0 R50
M73 Q0 S50
M107
;TYPE:Custom
M862.3 P "MK3S" ; printer model check
M862.1 P0.4 ; nozzle diameter check
M115 U3.10.0 ; tell printer latest fw version
G90 ; use absolute coordinates
M83 ; extruder relative mode
M104 S230 ; set extruder temp
M140 S85 ; set bed temp
M190 S85 ; wait for bed temp
M109 S230 ; wait for extruder temp
G28 W ; home all without mesh bed level
G80 ; mesh bed leveling
G1 Z0.2 F720
G1 Y-3 F1000 ; go outside print area
G92 E0
G1 X60 E9 F1000 ; intro line
G1 X100 E12.5 F1000 ; intro line
G92 E0
M221 S95

; Don't change E values below. Excessive value can damage the printer.

M907 E538 ; set extruder motor current
G21 ; set units to millimeters
G90 ; use absolute coordinates
M83 ; use relative distances for extrusion
M900 K0.08 ; Filament gcode LA 1.5
M900 K45 ; Filament gcode LA 1.0
M107
;LAYER_CHANGE
;Z:0.2
;HEIGHT:0.2
;BEFORE_LAYER_CHANGE
G92 E0.0
;0.2


G1 E-1 F2100
G1 Z.2 F720
;AFTER_LAYER_CHANGE
;0.2
G1 Z.4
G1 X92.015 Y70.606 F10800
G1 Z.2 F720
G1 E1 F2100
M204 S800
;TYPE:Skirt/Brim
;WIDTH:0.42
G1 F1200
G1 X92.13 Y70.456 E.00591
G1 X93.515 Y68.959 E.06394
G1 X94.865 Y67.721 E.05744
G1 X96.647 Y66.354 E.07043
G1 X98.192 Y65.369 E.05744
G1 X99.997 Y64.42 E.06394
G1 X102.072 Y63.56 E.07043
G1 X104.02 Y62.955 E.06394
G1 X105.809 Y62.559 E.05744
G1 X108.036 Y62.266 E.07043
G1 X109.866 Y62.186 E.05744
G1 X111.904 Y62.266 E.06394
G1 X113.927 Y62.523 E.06394
G1 X115.919 Y62.955 E.06394
G1 X117.867 Y63.56 E.06394
G1 X119.754 Y64.332 E.06394
G1 X121.747 Y65.369 E.07043
G1 X123.462 Y66.473 E.06394
G1 X125.074 Y67.721 E.06394
G1 X126.572 Y69.105 E.06394
G1 X127.892 Y70.551 E.06138
G1 X158.244 Y107.407 E1.49702
G1 X159.508 Y109.052 E.06504
G1 X160.697 Y110.902 E.06896
G1 X161.809 Y113.037 E.07548
G1 X162.642 Y115.073 E.06897
G1 X163.321 Y117.29 E.0727
G1 X163.762 Y119.323 E.06523
G1 X164.022 Y121.298 E.06247
G1 X164.127 Y123.496 E.06897
G1 X164.04 Y125.694 E.06897
G1 X163.762 Y127.876 E.06897
G1 X163.295 Y130.025 E.06897
G1 X162.575 Y132.309 E.07506
G1 X161.721 Y134.35 E.06937
G1 X160.697 Y136.297 E.06897
G1 X159.424 Y138.256 E.07325
G1 X158.161 Y139.887 E.06468
G1 X156.815 Y141.356 E.06248
G1 X155.199 Y142.848 E.06897
G1 X153.46 Y144.195 E.06897
G1 X151.43 Y145.488 E.07547
G1 X149.475 Y146.496 E.06897
G1 X147.634 Y147.258 E.06247
G1 X145.539 Y147.928 E.06897
G1 X143.175 Y148.451 E.0759
G1 X141.007 Y148.727 E.06853
G1 X138.809 Y148.814 E.06897
G1 X136.818 Y148.727 E.06247
G1 X134.636 Y148.449 E.06897
G1 X132.239 Y147.913 E.07702
G1 X130.191 Y147.258 E.0674
G1 X128.162 Y146.408 E.06898
G1 X126.395 Y145.488 E.06248
G1 X124.535 Y144.314 E.06897
G1 X122.625 Y142.848 E.07547
G1 X121.156 Y141.502 E.06247
G1 X119.663 Y139.887 E.06897
G1 X118.257 Y138.065 E.07214
G1 X90.822 Y98.971 E1.49749
G1 X89.675 Y97.158 E.06727
G1 X88.741 Y95.345 E.06394
G1 X88.04 Y93.653 E.05744
G1 X87.418 Y91.711 E.06394
G1 X86.932 Y89.518 E.07043
G1 X86.675 Y87.495 E.06394
G1 X86.595 Y85.664 E.05744
G1 X86.675 Y83.627 E.06394
G1 X86.968 Y81.4 E.07043
G1 X87.365 Y79.611 E.05744
G1 X87.969 Y77.663 E.06394
G1 X88.829 Y75.588 E.07043
G1 X89.778 Y73.783 E.06394
G1 X90.763 Y72.238 E.05744
G1 X91.979 Y70.653 E.06264
M204 S1000
; printing object Membrane_Air_Horn_v18-5_Cologne_CAN.stl id:0 copy 0
;WIPE_START
G1 F8640
G1 X92.13 Y70.456 E-.0574
G1 X93.515 Y68.959 E-.47086
G1 X94.861 Y67.725 E-.42174
;WIPE_END
G1 E-.05 F2100
G1 Z.4 F720
G1 X91.754 Y82.783 F10800
G1 Z.2 F720
G1 E1 F2100
M204 S800
;TYPE:Perimeter
;WIDTH:0.419999
G1 F1200
G1 X91.33 Y82.863 E.01351
G1 X90.792 Y83.125 E.01876
G1 X90.455 Y83.419 E.01402
G1 X90.148 Y83.816 E.01575
G1 X89.933 Y84.226 E.01451
G1 X89.797 Y84.659 E.01423
G1 X89.834 Y83.799 E.02699
G1 X90.065 Y82.051 E.05529
G1 X90.446 Y80.329 E.05529
G1 X90.976 Y78.648 E.05529
G1 X91.651 Y77.019 E.05529
G1 X92.465 Y75.455 E.05529
G1 X93.413 Y73.967 E.05529
G1 X94.486 Y72.568 E.05529
G1 X95.678 Y71.268 E.05529
G1 X96.978 Y70.077 E.05529
G1 X98.376 Y69.004 E.05529
G1 X99.864 Y68.056 E.05529
G1 X101.428 Y67.242 E.05529
G1 X103.057 Y66.567 E.05529
G1 X104.738 Y66.037 E.05529
G1 X106.46 Y65.656 E.05529
G1 X108.208 Y65.425 E.05529
G1 X109.97 Y65.348 E.05529
G1 X111.731 Y65.425 E.05529
G1 X113.48 Y65.656 E.05529
G1 X115.201 Y66.037 E.05529
G1 X116.883 Y66.567 E.05529
G1 X118.512 Y67.242 E.05529
G1 X120.076 Y68.056 E.05529
G1 X121.563 Y69.004 E.05529
G1 X122.962 Y70.077 E.05529
G1 X124.262 Y71.268 E.05529
G1 X125.453 Y72.568 E.05529
G1 X126.527 Y73.967 E.05529
G1 X127.474 Y75.455 E.05529
G1 X128.288 Y77.019 E.05529
G1 X128.963 Y78.648 E.05529
G1 X129.493 Y80.329 E.05529
G1 X129.875 Y82.051 E.05529
G1 X130.105 Y83.799 E.05529
G1 X130.182 Y85.561 E.05529
G1 X130.105 Y87.322 E.05529
G1 X129.875 Y89.07 E.05529
G1 X129.493 Y90.792 E.05529
G1 X128.963 Y92.474 E.05529
G1 X128.288 Y94.103 E.05529
G1 X127.474 Y95.667 E.05529
G1 X126.527 Y97.154 E.05529
G1 X125.453 Y98.553 E.05529
G1 X124.262 Y99.853 E.05529
G1 X122.962 Y101.044 E.05529
G1 X121.563 Y102.117 E.05529
G1 X120.076 Y103.065 E.05529
G1 X118.512 Y103.879 E.05529
G1 X116.883 Y104.554 E.05529
G1 X115.201 Y105.084 E.05529
G1 X113.48 Y105.466 E.05529
G1 X111.731 Y105.696 E.05529
G1 X109.97 Y105.773 E.05529
G1 X108.208 Y105.696 E.05529
G1 X106.46 Y105.466 E.05529
G1 X104.738 Y105.084 E.05529
G1 X103.057 Y104.554 E.05529
G1 X101.428 Y103.879 E.05529
G1 X99.864 Y103.065 E.05529
G1 X98.376 Y102.117 E.05529
G1 X96.978 Y101.044 E.05529
G1 X95.678 Y99.853 E.05529
G1 X94.486 Y98.553 E.05529
G1 X93.413 Y97.154 E.05529
G1 X92.465 Y95.667 E.05529
G1 X91.651 Y94.103 E.05529
G1 X90.976 Y92.474 E.05529
G1 X90.446 Y90.792 E.05529
G1 X90.065 Y89.07 E.05529
G1 X89.834 Y87.322 E.05529
G1 X89.797 Y86.462 E.02699
G1 X89.943 Y86.914 E.01489
G1 X90.192 Y87.373 E.01638
G1 X90.47 Y87.721 E.01397
G1 X90.95 Y88.093 E.01905
G1 X91.37 Y88.275 E.01434
G1 X91.752 Y88.323 E.01206
G1 X91.815 Y88.787 E.01467
G1 X92.152 Y90.309 E.04889
G1 X92.651 Y91.89 E.05198
G1 X93.268 Y93.376 E.05044
G1 X93.989 Y94.759 E.04889
G1 X94.879 Y96.157 E.05198
G1 X95.86 Y97.432 E.05044
G1 X96.949 Y98.617 E.05044
G1 X98.098 Y99.67 E.04889
G1 X99.373 Y100.651 E.05044
G1 X100.729 Y101.517 E.05044
G1 X102.155 Y102.262 E.05044
G1 X103.686 Y102.896 E.05198
G1 X105.221 Y103.378 E.05044
G1 X106.743 Y103.715 E.04889
G1 X108.338 Y103.928 E.05044
G1 X109.994 Y104 E.05198
G1 X111.601 Y103.928 E.05044
G1 X113.147 Y103.724 E.04889
G1 X114.718 Y103.378 E.05044
G1 X116.253 Y102.896 E.05044
G1 X117.785 Y102.262 E.05198
G1 X119.211 Y101.517 E.05044
G1 X120.566 Y100.651 E.05044
G1 X121.803 Y99.702 E.04889
G1 X123.026 Y98.582 E.05198
G1 X124.079 Y97.432 E.04889
G1 X125.06 Y96.157 E.05044
G1 X125.926 Y94.802 E.05044
G1 X126.692 Y93.331 E.05198
G1 X127.305 Y91.844 E.05044
G1 X127.787 Y90.309 E.05044
G1 X128.133 Y88.738 E.05044
G1 X128.337 Y87.192 E.04889
G1 X128.409 Y85.585 E.05044
G1 X128.337 Y83.929 E.05198
G1 X128.133 Y82.383 E.04889
G1 X127.787 Y80.812 E.05044
G1 X127.305 Y79.277 E.05044
G1 X126.671 Y77.746 E.05198
G1 X125.926 Y76.32 E.05044
G1 X125.088 Y75.005 E.04889
G1 X124.111 Y73.727 E.05044
G1 X123.026 Y72.54 E.05044
G1 X121.803 Y71.419 E.05198
G1 X120.526 Y70.442 E.05044
G1 X119.168 Y69.579 E.05044
G1 X117.74 Y68.839 E.05044
M73 Q1 S50
G1 X116.299 Y68.242 E.04889
G1 X114.718 Y67.743 E.05198
M73 P1 R50
G1 X113.147 Y67.397 E.05044
G1 X111.552 Y67.189 E.05044
G1 X109.945 Y67.121 E.05044
G1 X108.338 Y67.194 E.05044
G1 X106.743 Y67.406 E.05044
G1 X105.221 Y67.743 E.04889
G1 X103.686 Y68.225 E.05044
G1 X102.199 Y68.839 E.05044
G1 X100.729 Y69.604 E.05198
G1 X99.373 Y70.47 E.05044
G1 X98.098 Y71.451 E.05044
G1 X96.914 Y72.54 E.05044
G1 X95.86 Y73.689 E.04889
G1 X94.851 Y75.005 E.05198
G1 X93.988 Y76.362 E.05044
G1 X93.248 Y77.79 E.05044
G1 X92.634 Y79.277 E.05044
G1 X92.165 Y80.764 E.04889
G1 X91.832 Y82.257 E.04796
G1 X91.762 Y82.724 E.01479
M204 S1000
G1 X92.081 Y83.183 F10800
M204 S800
;TYPE:External perimeter
G1 F1200
G1 X92.18 Y82.432 E.02374
G1 X92.521 Y80.894 E.04941
G1 X92.994 Y79.391 E.04941
G1 X93.596 Y77.935 E.04941
G1 X94.331 Y76.522 E.04992
G1 X95.178 Y75.194 E.04941
G1 X96.128 Y73.957 E.04889
G1 X97.192 Y72.794 E.04941
G1 X98.353 Y71.729 E.04941
G1 X99.603 Y70.769 E.04941
G1 X100.931 Y69.922 E.04941
G1 X102.329 Y69.194 E.04941
G1 X103.784 Y68.59 E.04941
G1 X105.303 Y68.111 E.04992
G1 X106.841 Y67.771 E.04941
G1 X108.404 Y67.566 E.04941
G1 X109.961 Y67.498 E.04889
G1 X111.536 Y67.566 E.04941
G1 X113.098 Y67.771 E.04941
G1 X114.637 Y68.111 E.04941
G1 X116.14 Y68.585 E.04941
G1 X117.596 Y69.187 E.04941
G1 X119.008 Y69.922 E.04992
G1 X120.337 Y70.769 E.04941
G1 X121.574 Y71.719 E.04889
G1 X122.736 Y72.783 E.04941
G1 X123.801 Y73.944 E.04941
G1 X124.761 Y75.194 E.04941
G1 X125.608 Y76.522 E.04941
G1 X126.336 Y77.92 E.04941
G1 X126.94 Y79.375 E.04941
G1 X127.419 Y80.894 E.04992
G1 X127.759 Y82.432 E.04941
G1 X127.964 Y83.995 E.04941
G1 X128.032 Y85.552 E.04889
G1 X127.964 Y87.127 E.04941
G1 X127.759 Y88.689 E.04941
G1 X127.419 Y90.228 E.04941
G1 X126.946 Y91.731 E.04941
G1 X126.343 Y93.187 E.04941
G1 X125.616 Y94.585 E.04941
G1 X124.77 Y95.914 E.04941
G1 X123.812 Y97.165 E.04941
G1 X122.748 Y98.327 E.04941
G1 X121.574 Y99.403 E.04992
G1 X120.323 Y100.361 E.04941
G1 X118.994 Y101.207 E.04941
G1 X117.596 Y101.934 E.04941
G1 X116.155 Y102.531 E.04889
G1 X114.653 Y103.006 E.04941
G1 X113.114 Y103.347 E.04941
G1 X111.552 Y103.554 E.04941
G1 X109.978 Y103.623 E.04941
G1 X108.404 Y103.555 E.04941
G1 X106.841 Y103.35 E.04941
G1 X105.303 Y103.01 E.04941
G1 X103.8 Y102.537 E.04941
G1 X102.344 Y101.934 E.04941
G1 X100.946 Y101.207 E.04941
G1 X99.616 Y100.361 E.04941
G1 X98.366 Y99.403 E.04941
G1 X97.203 Y98.339 E.04941
G1 X96.138 Y97.177 E.04941
G1 X95.178 Y95.928 E.04941
M73 P1 R49
G1 X94.331 Y94.599 E.04941
G1 X93.603 Y93.202 E.04941
G1 X92.999 Y91.746 E.04941
G1 X92.525 Y90.244 E.04941
G1 X92.183 Y88.705 E.04941
G1 X92.095 Y88.041 E.021
G1 X92.064 Y87.957 E.00282
G1 X91.559 Y87.934 E.01585
G1 X91.174 Y87.79 E.0129
G1 X90.758 Y87.478 E.01627
G1 X90.449 Y87.057 E.01638
;WIDTH:0.468883
G1 X90.311 Y86.769 E.01131
;WIDTH:0.517767
G1 X90.173 Y86.481 E.01261
;WIDTH:0.56665
G1 X90.035 Y86.193 E.01391
G1 X89.974 Y85.585 E.02663
;WIDTH:0.577799
G1 X90.02 Y84.977 E.02711
G1 X90.079 Y84.839 E.0067
;WIDTH:0.538349
G1 X90.139 Y84.7 E.0062
;WIDTH:0.498899
G1 X90.199 Y84.562 E.00571
;WIDTH:0.459449
G1 X90.259 Y84.424 E.00521
;WIDTH:0.419999
G1 X90.446 Y84.047 E.01321
G1 X90.753 Y83.649 E.01575
G1 X91.073 Y83.391 E.01289
G1 X91.547 Y83.188 E.01617
G1 X91.9 Y83.153 E.01111
G1 X92.022 Y83.173 E.00388
M204 S1000
G1 X91.911 Y82.821 F10800
;WIPE_START
G1 F8640
G1 X92.18 Y82.432 E-.1749
G1 X92.521 Y80.894 E-.36385
G1 X92.994 Y79.391 E-.36385
G1 X93.072 Y79.201 E-.04741
;WIPE_END
G1 E-.05 F2100
G1 Z.4 F720
G1 X89.494 Y84.837 F10800
G1 Z.2 F720
G1 E1 F2100
M204 S800
;WIDTH:0.585342
G1 F1200
G1 X89.48 Y84.7 E.00623
;WIDTH:0.544007
G1 X89.465 Y84.562 E.00576
;WIDTH:0.502671
G1 X89.45 Y84.425 E.00528
;WIDTH:0.461335
G1 X89.436 Y84.288 E.00481
;WIDTH:0.419999
G1 X89.458 Y83.766 E.01636
G1 X89.693 Y81.985 E.05632
G1 X90.082 Y80.232 E.05632
G1 X90.622 Y78.519 E.05632
G1 X91.309 Y76.859 E.05632
G1 X92.139 Y75.266 E.05632
G1 X93.104 Y73.751 E.05632
G1 X94.197 Y72.326 E.05632
G1 X95.411 Y71.002 E.05632
G1 X96.735 Y69.788 E.05632
G1 X98.16 Y68.695 E.05632
G1 X99.675 Y67.729 E.05632
G1 X101.268 Y66.9 E.05632
G1 X102.928 Y66.213 E.05632
G1 X104.641 Y65.673 E.05632
G1 X106.394 Y65.284 E.05632
G1 X108.175 Y65.049 E.05632
G1 X109.97 Y64.971 E.05632
G1 X111.764 Y65.049 E.05632
G1 X113.545 Y65.284 E.05632
G1 X115.299 Y65.673 E.05632
G1 X117.012 Y66.213 E.05632
G1 X118.671 Y66.9 E.05632
G1 X120.265 Y67.73 E.05632
G1 X121.779 Y68.695 E.05632
G1 X123.204 Y69.788 E.05632
G1 X124.529 Y71.002 E.05632
G1 X125.742 Y72.326 E.05632
G1 X126.836 Y73.751 E.05632
G1 X127.801 Y75.266 E.05632
G1 X128.63 Y76.859 E.05632
G1 X129.318 Y78.519 E.05632
G1 X129.858 Y80.232 E.05632
G1 X130.247 Y81.985 E.05632
G1 X130.481 Y83.766 E.05632
G1 X130.559 Y85.561 E.05632
G1 X130.481 Y87.355 E.05632
G1 X130.247 Y89.136 E.05632
G1 X129.858 Y90.89 E.05632
G1 X129.318 Y92.603 E.05632
G1 X128.63 Y94.262 E.05632
G1 X127.801 Y95.855 E.05632
G1 X126.836 Y97.37 E.05632
G1 X125.742 Y98.795 E.05632
G1 X124.529 Y100.12 E.05632
G1 X123.204 Y101.333 E.05632
G1 X121.779 Y102.427 E.05632
G1 X120.264 Y103.392 E.05632
G1 X118.671 Y104.221 E.05632
G1 X117.012 Y104.909 E.05632
G1 X115.299 Y105.449 E.05632
G1 X113.545 Y105.837 E.05632
G1 X111.764 Y106.072 E.05632
G1 X109.97 Y106.15 E.05632
G1 X108.175 Y106.072 E.05632
G1 X106.394 Y105.837 E.05632
G1 X104.641 Y105.449 E.05632
G1 X102.928 Y104.909 E.05632
G1 X101.268 Y104.221 E.05632
G1 X99.675 Y103.392 E.05632
G1 X98.16 Y102.427 E.05632
G1 X96.735 Y101.333 E.05632
G1 X95.411 Y100.12 E.05632
G1 X94.197 Y98.795 E.05632
G1 X93.104 Y97.37 E.05632
G1 X92.139 Y95.855 E.05632
G1 X91.309 Y94.262 E.05632
G1 X90.622 Y92.603 E.05632
G1 X90.082 Y90.89 E.05632
G1 X89.693 Y89.136 E.05632
G1 X89.458 Y87.355 E.05632
G1 X89.436 Y86.834 E.01636
;WIDTH:0.459449
G1 X89.448 Y86.67 E.00567
;WIDTH:0.498899
G1 X89.461 Y86.507 E.00621
;WIDTH:0.538349
G1 X89.474 Y86.344 E.00674
;WIDTH:0.577799
G1 X89.486 Y86.181 E.00728
G1 X89.452 Y85.561 E.02763
;WIDTH:0.563973
G1 X89.455 Y85.501 E.00259
;WIDTH:0.585342
G1 X89.491 Y84.897 E.02728
M204 S1000
;WIPE_START
G1 F8640
G1 X89.48 Y84.7 E-.04563
G1 X89.465 Y84.562 E-.03191
G1 X89.45 Y84.425 E-.03191
G1 X89.436 Y84.288 E-.03191
G1 X89.458 Y83.766 E-.12052
G1 X89.693 Y81.985 E-.41475
G1 X89.949 Y80.829 E-.27336
;WIPE_END
G1 E-.05 F2100
G1 Z.4 F720
G1 X125.807 Y73.216 F10800
G1 Z.2 F720
G1 E1 F2100
M204 S800
;TYPE:Solid infill
;WIDTH:0.422501
G1 F1200
G1 X124.043 Y71.451 E.07875
G1 X122.78 Y70.294 E.05406
G1 X121.401 Y69.236 E.05487
G1 X121.097 Y69.042 E.01136
G1 X126.488 Y74.433 E.24064
G1 X127.229 Y75.596 E.04351
G1 X127.354 Y75.836 E.00852
G1 X119.695 Y68.177 E.34186
G1 X118.575 Y67.594 E.03984
G1 X127.936 Y76.955 E.41785
G1 X128.032 Y77.138 E.00651
G1 X128.349 Y77.905 E.02619
G1 X125.377 Y74.933 E.13267
G1 X124.29 Y73.501 E.05672
M73 Q1 S49
G1 X123.209 Y72.322 E.05051
G1 X122.029 Y71.24 E.05051
G1 X120.595 Y70.151 E.05684
G1 X117.625 Y67.181 E.13255
G1 X116.72 Y66.813 E.03085
G1 X119.17 Y69.262 E.10935
G1 X118.05 Y68.68 E.03984
G1 X115.936 Y66.565 E.09436
G1 X115.152 Y66.318 E.02595
G1 X117.103 Y68.269 E.08709
G1 X116.214 Y67.917 E.0302
G1 X114.459 Y66.162 E.0783
G1 X113.77 Y66.01 E.0223
G1 X115.429 Y67.669 E.07407
G1 X114.669 Y67.446 E.025
G1 X113.116 Y65.893 E.06931
G1 X112.498 Y65.812 E.01968
G1 X113.979 Y67.293 E.06611
G1 X113.29 Y67.14 E.0223
G1 X111.88 Y65.73 E.06292
G1 X111.707 Y65.707 E.00552
G1 X111.303 Y65.69 E.01276
G1 X112.661 Y67.048 E.06064
G1 X112.043 Y66.967 E.01967
G1 X110.741 Y65.665 E.05811
G1 X110.18 Y65.641 E.01773
G1 X111.442 Y66.902 E.05631
G1 X110.88 Y66.878 E.01773
G1 X109.65 Y65.648 E.05491
G1 X109.135 Y65.669 E.01627
G1 X110.319 Y66.853 E.05284
G1 X109.775 Y66.846 E.01716
G1 X108.62 Y65.691 E.05157
G1 X108.115 Y65.723 E.01597
G1 X109.261 Y66.869 E.05115
G1 X108.747 Y66.891 E.01625
G1 X107.641 Y65.785 E.04937
G1 X107.166 Y65.848 E.0151
G1 X108.24 Y66.922 E.04795
G1 X107.766 Y66.984 E.01511
G1 X106.692 Y65.91 E.04794
G1 X106.509 Y65.934 E.00582
G1 X106.239 Y65.994 E.00873
G1 X107.291 Y67.046 E.04697
G1 X106.817 Y67.109 E.01511
G1 X105.8 Y66.092 E.0454
G1 X105.36 Y66.189 E.01421
G1 X106.373 Y67.201 E.04519
G1 X105.933 Y67.299 E.01421
G1 X104.921 Y66.286 E.04519
G1 X104.812 Y66.311 E.00353
G1 X104.505 Y66.407 E.01015
G1 X105.494 Y67.396 E.04414
G1 X105.057 Y67.496 E.01414
